!!!!SEGMENT: pl-wtm--r-660-m--006_moniuszko-stanislaw--loteryja-no-5-chor.krn
!!!cenid: 18xx:3021
!!!COM: Moniuszko, Stanisław
!!!COM-rismid: pe30008351
!!!CDT: 1819/05/05-1872/06/04
!!!CNT: Polish
!!!GTL: Loteryja
!!!OTL: No. 5 - Chór
!!!PDT: 1846
!!!AGN: Secular
!!!SMS-siglum: PL-Wtm
!!!SMS-shelfmark: R 660/M
!!!SMS-shelfwork: 006 G
!!!SMS-variant:
!!!SMS-altvar:
!!!NIFC-rismid: 1001090852
!!!URL-scan: http://repozytorium.nifc.pl/skany/pl-wtm-nut--r660m
!!!ONB-nifc: UWAGA: skany 0042 (dołączyć fragment na dole „Tromba za sceną”) - 0046
!!!key:
**kern	**kern	**dynam	**kern	**text	**text	**dynam	**kern	**text	**dynam	**kern	**text	**dynam	**kern	**dynam	**kern	**dynam	**kern	**dynam	**kern	**dynam	**kern	**dynam	**kern	**dynam	**kern	**dynam	**kern	**dynam	**kern	**dynam	**kern	**dynam	**kern	**dynam
*	*	*	*group1	*	*	*	*group1	*	*	*group1	*	*	*	*	*	*	*	*	*	*	*	*	*	*	*	*	*	*	*	*	*	*	*	*
*	*	*	*I""Chór:	*	*	*	*I""Chór:	*	*	*I""Chór:	*	*	*	*	*	*	*	*	*	*	*	*	*	*	*	*	*	*	*	*	*	*	*	*
*part16	*part15	*part15	*part14	*part14	*part14	*part14	*part13	*part13	*part13	*part12	*part12	*part12	*part11	*part11	*part10	*part10	*part9	*part9	*part8	*part8	*part7	*part7	*part6	*part6	*part5	*part5	*part4	*part4	*part3	*part3	*part2	*part2	*part1	*part1
*staff16	*staff15	*	*staff14	*staff14	*staff14	*	*staff13	*staff13	*	*staff12	*staff12	*	*staff11	*	*staff10	*	*staff9	*	*staff8	*	*staff7	*	*staff6	*	*staff5	*	*staff4	*	*staff3	*	*staff2	*	*staff1	*
*Itromp	*Iempty	*	*Iempty	*	*	*	*Iempty	*	*	*Iempty	*	*	*Iviola	*	*Ivioln	*	*Ivioln	*	*Iempty	*	*Itromt	*	*Itromp	*	*Iempty	*	*Ifagot	*	*Iempty	*	*Ioboe	*	*Iflt	*
*I"Tromba in D.	*I"Cello CB.	*	*	*	*	*	*	*	*	*	*	*	*I"Viola.	*	*I"V. 2.	*	*I"V. 1.	*	*I"D. A. Timp.	*	*I"Trombon.	*	*I"in D. Trombe.	*	*I"in D. Corni.	*	*I"Fagotti.	*	*I"in A. Clarinetti.	*	*I"Oboi.	*	*I"Flauti.	*
*clefG2	*clefF4	*	*clefF4	*	*	*	*clefC4	*	*	*clefC1	*	*	*clefC3	*	*clefG2	*	*clefG2	*	*clefF4	*	*clefF4	*	*clefG2	*	*clefG2	*	*clefF4	*	*clefG2	*	*clefG2	*	*clefG2	*
*ITrd-1c-2	*	*	*	*	*	*	*	*	*	*	*	*	*	*	*	*	*	*	*	*	*	*	*ITrd-1c-2	*	*ITrd6c10	*	*	*	*ITrd2c3	*	*	*	*	*
*k[f#c#]	*k[f#c#]	*	*k[f#c#]	*	*	*	*k[f#c#]	*	*	*k[f#c#]	*	*	*k[f#c#]	*	*k[f#c#]	*	*k[f#c#]	*	*k[f#c#]	*	*k[f#c#]	*	*k[f#c#]	*	*k[f#c#]	*	*k[f#c#]	*	*k[f#c#]	*	*k[f#c#]	*	*k[f#c#]	*
*D:	*D:	*	*D:	*	*	*	*D:	*	*	*D:	*	*	*D:	*	*D:	*	*D:	*	*D:	*	*D:	*	*D:	*	*D:	*	*D:	*	*D:	*	*D:	*	*D:	*
*M6/8	*M6/8	*	*M6/8	*	*	*	*M6/8	*	*	*M6/8	*	*	*M6/8	*	*M6/8	*	*M6/8	*	*M6/8	*	*M6/8	*	*M6/8	*	*M6/8	*	*M6/8	*	*M6/8	*	*M6/8	*	*M6/8	*
=1	=1	=1	=1	=1	=1	=1	=1	=1	=1	=1	=1	=1	=1	=1	=1	=1	=1	=1	=1	=1	=1	=1	=1	=1	=1	=1	=1	=1	=1	=1	=1	=1	=1	=1
!LO:TX:a:t=(&colon; za sceną &colon;)	!	!	!	!	!	!	!	!	!	!	!	!	!LO:TX:t=P:problem:kolejność znaków F# c#	!	!LO:TX:t=P:problem:kolejność znaków f# c#	!	!LO:TX:t=P:problem:kolejność znaków f# c#	!	!LO:TX:t=P:problem:kotły zapisane bez znaków #229	!	!	!	!	!	!	!	!	!	!	!	!LO:TX:t=P:problem:kolejność znaków f# c#	!	!LO:TX:t=P:problem:kolejność znaków f# c#	!
!	!	!	!	!	!	!	!	!	!	!	!	!	!	!	!	!	!	!	!	!	!	!	!	!	!	!	!	!	!	!	!	!	!LO:TX:t=P:problem:all\right or left:global	!
8dd\L	2.ryy	.	2.ryy	.	.	.	2.ryy	.	.	2.ryy	.	.	2.ryy	.	2.ryy	.	2.ryy	.	2.ryy	.	2.ryy	.	2.ryy	.	2.ryy	.	2.ryy	.	2.ryy	.	2.ryy	.	2.ryy	.
16dd\L	.	.	.	.	.	.	.	.	.	.	.	.	.	.	.	.	.	.	.	.	.	.	.	.	.	.	.	.	.	.	.	.	.	.
16dd\J	.	.	.	.	.	.	.	.	.	.	.	.	.	.	.	.	.	.	.	.	.	.	.	.	.	.	.	.	.	.	.	.	.	.
8dd\J	.	.	.	.	.	.	.	.	.	.	.	.	.	.	.	.	.	.	.	.	.	.	.	.	.	.	.	.	.	.	.	.	.	.
4.ff#^^\	.	.	.	.	.	.	.	.	.	.	.	.	.	.	.	.	.	.	.	.	.	.	.	.	.	.	.	.	.	.	.	.	.	.
=2	=2	=2	=2	=2	=2	=2	=2	=2	=2	=2	=2	=2	=2	=2	=2	=2	=2	=2	=2	=2	=2	=2	=2	=2	=2	=2	=2	=2	=2	=2	=2	=2	=2	=2
8dd\L	2.ryy	.	2.ryy	.	.	.	2.ryy	.	.	2.ryy	.	.	2.ryy	.	2.ryy	.	2.ryy	.	2.ryy	.	2.ryy	.	2.ryy	.	2.ryy	.	2.ryy	.	2.ryy	.	2.ryy	.	2.ryy	.
16dd\L	.	.	.	.	.	.	.	.	.	.	.	.	.	.	.	.	.	.	.	.	.	.	.	.	.	.	.	.	.	.	.	.	.	.
16dd\J	.	.	.	.	.	.	.	.	.	.	.	.	.	.	.	.	.	.	.	.	.	.	.	.	.	.	.	.	.	.	.	.	.	.
8dd\J	.	.	.	.	.	.	.	.	.	.	.	.	.	.	.	.	.	.	.	.	.	.	.	.	.	.	.	.	.	.	.	.	.	.
4.ff#^^\	.	.	.	.	.	.	.	.	.	.	.	.	.	.	.	.	.	.	.	.	.	.	.	.	.	.	.	.	.	.	.	.	.	.
=3	=3	=3	=3	=3	=3	=3	=3	=3	=3	=3	=3	=3	=3	=3	=3	=3	=3	=3	=3	=3	=3	=3	=3	=3	=3	=3	=3	=3	=3	=3	=3	=3	=3	=3
8dd\L	2.ryy	.	2.ryy	.	.	.	2.ryy	.	.	2.ryy	.	.	2.ryy	.	2.ryy	.	2.ryy	.	2.ryy	.	2.ryy	.	2.ryy	.	2.ryy	.	2.ryy	.	2.ryy	.	2.ryy	.	2.ryy	.
16dd\L	.	.	.	.	.	.	.	.	.	.	.	.	.	.	.	.	.	.	.	.	.	.	.	.	.	.	.	.	.	.	.	.	.	.
16dd\J	.	.	.	.	.	.	.	.	.	.	.	.	.	.	.	.	.	.	.	.	.	.	.	.	.	.	.	.	.	.	.	.	.	.
8dd\J	.	.	.	.	.	.	.	.	.	.	.	.	.	.	.	.	.	.	.	.	.	.	.	.	.	.	.	.	.	.	.	.	.	.
8ff#\L	.	.	.	.	.	.	.	.	.	.	.	.	.	.	.	.	.	.	.	.	.	.	.	.	.	.	.	.	.	.	.	.	.	.
8ee\	.	.	.	.	.	.	.	.	.	.	.	.	.	.	.	.	.	.	.	.	.	.	.	.	.	.	.	.	.	.	.	.	.	.
8dd\J	.	.	.	.	.	.	.	.	.	.	.	.	.	.	.	.	.	.	.	.	.	.	.	.	.	.	.	.	.	.	.	.	.	.
=4	=4	=4	=4	=4	=4	=4	=4	=4	=4	=4	=4	=4	=4	=4	=4	=4	=4	=4	=4	=4	=4	=4	=4	=4	=4	=4	=4	=4	=4	=4	=4	=4	=4	=4
8ee\L	2.ryy	.	2.ryy	.	.	.	2.ryy	.	.	2.ryy	.	.	2.ryy	.	2.ryy	.	2.ryy	.	2.ryy	.	2.ryy	.	2.ryy	.	2.ryy	.	2.ryy	.	2.ryy	.	2.ryy	.	2.ryy	.
8dd\	.	.	.	.	.	.	.	.	.	.	.	.	.	.	.	.	.	.	.	.	.	.	.	.	.	.	.	.	.	.	.	.	.	.
8ee\J	.	.	.	.	.	.	.	.	.	.	.	.	.	.	.	.	.	.	.	.	.	.	.	.	.	.	.	.	.	.	.	.	.	.
8ff#\L	.	.	.	.	.	.	.	.	.	.	.	.	.	.	.	.	.	.	.	.	.	.	.	.	.	.	.	.	.	.	.	.	.	.
8ee\	.	.	.	.	.	.	.	.	.	.	.	.	.	.	.	.	.	.	.	.	.	.	.	.	.	.	.	.	.	.	.	.	.	.
8dd\J	.	.	.	.	.	.	.	.	.	.	.	.	.	.	.	.	.	.	.	.	.	.	.	.	.	.	.	.	.	.	.	.	.	.
=5	=5	=5	=5	=5	=5	=5	=5	=5	=5	=5	=5	=5	=5	=5	=5	=5	=5	=5	=5	=5	=5	=5	=5	=5	=5	=5	=5	=5	=5	=5	=5	=5	=5	=5
8ee\L	2.ryy	.	2.ryy	.	.	.	2.ryy	.	.	2.ryy	.	.	2.ryy	.	2.ryy	.	2.ryy	.	2.ryy	.	2.ryy	.	2.ryy	.	2.ryy	.	2.ryy	.	2.ryy	.	2.ryy	.	2.ryy	.
16a\L	.	.	.	.	.	.	.	.	.	.	.	.	.	.	.	.	.	.	.	.	.	.	.	.	.	.	.	.	.	.	.	.	.	.
16a\J	.	.	.	.	.	.	.	.	.	.	.	.	.	.	.	.	.	.	.	.	.	.	.	.	.	.	.	.	.	.	.	.	.	.
8a\J	.	.	.	.	.	.	.	.	.	.	.	.	.	.	.	.	.	.	.	.	.	.	.	.	.	.	.	.	.	.	.	.	.	.
4.dd\	.	.	.	.	.	.	.	.	.	.	.	.	.	.	.	.	.	.	.	.	.	.	.	.	.	.	.	.	.	.	.	.	.	.
!LO:LB:g=original	!	!	!	!	!	!	!	!	!	!	!	!	!	!	!	!	!	!	!	!	!	!	!	!	!	!	!	!	!	!	!	!	!	!
=6	=6	=6	=6	=6	=6	=6	=6	=6	=6	=6	=6	=6	=6	=6	=6	=6	=6	=6	=6	=6	=6	=6	=6	=6	=6	=6	=6	=6	=6	=6	=6	=6	=6	=6
8a/L	2.ryy	.	2.ryy	.	.	.	2.ryy	.	.	2.ryy	.	.	2.ryy	.	2.ryy	.	2.ryy	.	2.ryy	.	2.ryy	.	2.ryy	.	2.ryy	.	2.ryy	.	2.ryy	.	2.ryy	.	2.ryy	.
16a/L	.	.	.	.	.	.	.	.	.	.	.	.	.	.	.	.	.	.	.	.	.	.	.	.	.	.	.	.	.	.	.	.	.	.
16a/J	.	.	.	.	.	.	.	.	.	.	.	.	.	.	.	.	.	.	.	.	.	.	.	.	.	.	.	.	.	.	.	.	.	.
8a/J	.	.	.	.	.	.	.	.	.	.	.	.	.	.	.	.	.	.	.	.	.	.	.	.	.	.	.	.	.	.	.	.	.	.
4dd\	.	.	.	.	.	.	.	.	.	.	.	.	.	.	.	.	.	.	.	.	.	.	.	.	.	.	.	.	.	.	.	.	.	.
8ff#\	.	.	.	.	.	.	.	.	.	.	.	.	.	.	.	.	.	.	.	.	.	.	.	.	.	.	.	.	.	.	.	.	.	.
=7	=7	=7	=7	=7	=7	=7	=7	=7	=7	=7	=7	=7	=7	=7	=7	=7	=7	=7	=7	=7	=7	=7	=7	=7	=7	=7	=7	=7	=7	=7	=7	=7	=7	=7
8ee\L	2.ryy	.	2.ryy	.	.	.	2.ryy	.	.	2.ryy	.	.	2.ryy	.	2.ryy	.	2.ryy	.	2.ryy	.	2.ryy	.	2.ryy	.	2.ryy	.	2.ryy	.	2.ryy	.	2.ryy	.	2.ryy	.
8ff#\	.	.	.	.	.	.	.	.	.	.	.	.	.	.	.	.	.	.	.	.	.	.	.	.	.	.	.	.	.	.	.	.	.	.
8ee\J	.	.	.	.	.	.	.	.	.	.	.	.	.	.	.	.	.	.	.	.	.	.	.	.	.	.	.	.	.	.	.	.	.	.
4.dd\	.	.	.	.	.	.	.	.	.	.	.	.	.	.	.	.	.	.	.	.	.	.	.	.	.	.	.	.	.	.	.	.	.	.
=8	=8	=8	=8	=8	=8	=8	=8	=8	=8	=8	=8	=8	=8	=8	=8	=8	=8	=8	=8	=8	=8	=8	=8	=8	=8	=8	=8	=8	=8	=8	=8	=8	=8	=8
8a/L	2.ryy	.	2.ryy	.	.	.	2.ryy	.	.	2.ryy	.	.	2.ryy	.	2.ryy	.	2.ryy	.	2.ryy	.	2.ryy	.	2.ryy	.	2.ryy	.	2.ryy	.	2.ryy	.	2.ryy	.	2.ryy	.
16a/L	.	.	.	.	.	.	.	.	.	.	.	.	.	.	.	.	.	.	.	.	.	.	.	.	.	.	.	.	.	.	.	.	.	.
16a/J	.	.	.	.	.	.	.	.	.	.	.	.	.	.	.	.	.	.	.	.	.	.	.	.	.	.	.	.	.	.	.	.	.	.
8a/J	.	.	.	.	.	.	.	.	.	.	.	.	.	.	.	.	.	.	.	.	.	.	.	.	.	.	.	.	.	.	.	.	.	.
4dd\	.	.	.	.	.	.	.	.	.	.	.	.	.	.	.	.	.	.	.	.	.	.	.	.	.	.	.	.	.	.	.	.	.	.
8ff#\	.	.	.	.	.	.	.	.	.	.	.	.	.	.	.	.	.	.	.	.	.	.	.	.	.	.	.	.	.	.	.	.	.	.
=9	=9	=9	=9	=9	=9	=9	=9	=9	=9	=9	=9	=9	=9	=9	=9	=9	=9	=9	=9	=9	=9	=9	=9	=9	=9	=9	=9	=9	=9	=9	=9	=9	=9	=9
8ee\L	2.ryy	.	2.ryy	.	.	.	2.ryy	.	.	2.ryy	.	.	2.ryy	.	2.ryy	.	2.ryy	.	2.ryy	.	2.ryy	.	2.ryy	.	2.ryy	.	2.ryy	.	2.ryy	.	2.ryy	.	2.ryy	.
8ff#\	.	.	.	.	.	.	.	.	.	.	.	.	.	.	.	.	.	.	.	.	.	.	.	.	.	.	.	.	.	.	.	.	.	.
8ee\J	.	.	.	.	.	.	.	.	.	.	.	.	.	.	.	.	.	.	.	.	.	.	.	.	.	.	.	.	.	.	.	.	.	.
4dd\	.	.	.	.	.	.	.	.	.	.	.	.	.	.	.	.	.	.	.	.	.	.	.	.	.	.	.	.	.	.	.	.	.	.
8ff#\	.	.	.	.	.	.	.	.	.	.	.	.	.	.	.	.	.	.	.	.	.	.	.	.	.	.	.	.	.	.	.	.	.	.
=10	=10	=10	=10	=10	=10	=10	=10	=10	=10	=10	=10	=10	=10	=10	=10	=10	=10	=10	=10	=10	=10	=10	=10	=10	=10	=10	=10	=10	=10	=10	=10	=10	=10	=10
!LO:TX:t=P:problem:mixed beam	!	!	!	!	!	!	!	!	!	!	!	!	!	!	!	!	!	!	!	!	!	!	!	!	!	!	!	!	!	!	!	!	!	!
8aa\L	2.ryy	.	2.ryy	.	.	.	2.ryy	.	.	2.ryy	.	.	2.ryy	.	2.ryy	.	2.ryy	.	2.ryy	.	2.ryy	.	2.ryy	.	2.ryy	.	2.ryy	.	2.ryy	.	2.ryy	.	2.ryy	.
16a/L	.	.	.	.	.	.	.	.	.	.	.	.	.	.	.	.	.	.	.	.	.	.	.	.	.	.	.	.	.	.	.	.	.	.
16a/J	.	.	.	.	.	.	.	.	.	.	.	.	.	.	.	.	.	.	.	.	.	.	.	.	.	.	.	.	.	.	.	.	.	.
8a/J	.	.	.	.	.	.	.	.	.	.	.	.	.	.	.	.	.	.	.	.	.	.	.	.	.	.	.	.	.	.	.	.	.	.
4.dd\	.	.	.	.	.	.	.	.	.	.	.	.	.	.	.	.	.	.	.	.	.	.	.	.	.	.	.	.	.	.	.	.	.	.
!!LO:PB:g=original
=11	=11	=11	=11	=11	=11	=11	=11	=11	=11	=11	=11	=11	=11	=11	=11	=11	=11	=11	=11	=11	=11	=11	=11	=11	=11	=11	=11	=11	=11	=11	=11	=11	=11	=11
*	*	*	*	*	*	*	*	*	*	*	*	*	*	*	*	*	*^	*	*	*	*	*	*	*	*	*	*	*	*	*	*	*	*	*
*	*	*	*	*	*	*	*	*	*	*	*	*	*	*	*	*	*cue	*	*	*	*	*	*	*	*	*	*	*	*	*	*	*	*	*	*
!	!	!	!	!	!	!	!	!	!	!	!	!	!	!	!	!	!LO:TX:a:t=(&colon; Tromba za sceną &colon;)	!	!	!	!	!	!	!	!	!	!	!	!	!	!	!	!	!	!
8a/L	4r	.	4r	.	.	.	4r	.	.	4r	.	.	4r	.	4r	.	8a/L	4r	.	4r	.	4r	.	4r	.	4r	.	4r	.	4r	.	4r	.	4r	.
16a/L	.	.	.	.	.	.	.	.	.	.	.	.	.	.	.	.	16a/L	.	.	.	.	.	.	.	.	.	.	.	.	.	.	.	.	.	.
16a/J	.	.	.	.	.	.	.	.	.	.	.	.	.	.	.	.	16a/J	.	.	.	.	.	.	.	.	.	.	.	.	.	.	.	.	.	.
8a/J	8r	.	8r	.	.	.	8r	.	.	8r	.	.	8r	.	8r	.	8a/J	8r	.	8r	.	8r	.	8r	.	8r	.	8r	.	8r	.	8r	.	8r	.
!LO:TX:t=P:problem:cue notes bez transpozycji [8ddd 8aa 8ff# 8dd 8d]	!	!	!	!	!	!	!	!	!	!	!	!	!	!	!	!	!	!	!	!	!	!	!	!	!	!	!	!	!	!	!	!	!	!	!
!LO:TX:b:i:t=attacca Subito\nN° 5	!	!	!	!	!	!LO:DY:b:t=ff.	!	!	!LO:DY:b:t=ff.	!	!	!LO:DY:b:t=ff.	!	!	!	!	!	!	!	!	!	!	!	!	!	!	!	!	!	!	!	!	!	!	!
4.dd\	4r	.	4r	.	.	ff	4r	.	ff	4r	.	ff	4r	.	4r	.	4dd/	4r	.	4r	.	4r	.	4r	.	4r	.	4r	.	4r	ff	4r	.	4r	.
*	*	*	*	*	*	*	*	*	*	*	*	*	*	*	*	*	*Xcue	*	*	*	*	*	*	*	*	*	*	*	*	*	*	*	*	*	*
!	!	!	!	!	!	!	!	!	!	!	!	!	!	!LO:DY:rj	!	!LO:DY:rj	!	!	!LO:DY:rj	!	!LO:DY:rj	!	!LO:DY:rj	!	!LO:DY:rj	!	!LO:DY:rj	!	!LO:DY:rj	!	!	!	!LO:DY:rj	!	!LO:DY:rj
.	8D\	.	8d\	.	.	.	8d\	Ach	.	8dd\	Ach	.	8a 8d\	ff	8ff# 8a\	ff	8ddd 8dd\	8ryy	ff	8D\	ff	8D\	ff	8dd 8f#/	ff	8d 8F#/	ff	8d 8D\	ff	8dd 8f#\	.	8dd 8f#/	ff	8ddd 8ff#\	ff
*	*	*	*	*	*	*	*	*	*	*	*	*	*	*	*	*	*v	*v	*	*	*	*	*	*	*	*	*	*	*	*	*	*	*	*	*
=12	=12	=12	=12	=12	=12	=12	=12	=12	=12	=12	=12	=12	=12	=12	=12	=12	=12	=12	=12	=12	=12	=12	=12	=12	=12	=12	=12	=12	=12	=12	=12	=12	=12	=12
*	*	*	*	*	*	*	*	*ij	*	*	*	*	*	*	*	*	*	*	*	*	*	*	*	*	*	*	*	*	*	*	*	*	*	*
!	!	!	!	!	!	!	!	!	!	!	!	!	!	!	!	!	!	!	!	!	!	!	!	!	!	!	!	!	!	!	!	!	!LO:TX:a:t=Φ:rj	!
!	!	!	!	!	!	!	!	!	!	!	!	!	!	!	!	!	!	!	!	!	!	!	!	!	!	!	!	!	!	!	!	!	!LO:TX:a:t=Col Ob. in 8va	!
2.ryy	4D\	.	4d\	.	.	.	4d\	spiesz!	.	4dd\	spiesz!	.	4a 4d\	.	4ff# 4a\	.	4ddd 4dd\	.	4D\	.	4D\	.	4dd 4f#/	.	4d 4F#/	.	4d 4D\	.	4dd 4f#\	.	4dd 4f#/	.	4dddyy 4ff#\yy	.
.	8D\	.	8d\	.	.	.	8d\	ach	.	8dd\	ach	.	8a 8d\	.	8ff# 8a\	.	8ddd 8dd\	.	8D\	.	8D\	.	8dd 8f#/	.	8d 8F#/	.	8d 8D\	.	8dd 8f#\	.	8dd 8f#/	.	8dddyy 8ff#\yy	.
.	4D\	.	4d\	.	.	.	4d\	spiesz	.	4dd\	spiesz	.	4a 4d\	.	4ff# 4a\	.	4ddd 4dd\	.	4D\	.	4D\	.	4dd 4f#/	.	4d 4F#/	.	4d 4D\	.	4dd 4f#\	.	4dd 4f#/	.	4dddyy 4ff#\yy	.
.	8D\	.	8D\	.	.	.	8d\	pocz-	.	8dd\	pocz-	.	8a 8d\	.	8ff# 8a\	.	8ddd 8dd\	.	8D\	.	8D\	.	8dd 8f#/	.	8d 8F#/	.	8d 8D\	.	8dd 8f#\	.	8dd 8f#/	.	8dddyy 8ff#\yy	.
=13	=13	=13	=13	=13	=13	=13	=13	=13	=13	=13	=13	=13	=13	=13	=13	=13	=13	=13	=13	=13	=13	=13	=13	=13	=13	=13	=13	=13	=13	=13	=13	=13	=13	=13
*	*	*	*	*	*	*	*	*	*	*	*	*	*	*	*	*	*	*	*	*	*	*	*	*	*	*	*	*	*	*	*^	*	*^	*
*	*	*	*	*	*	*	*	*	*	*	*	*	*	*	*tremolo	*	*	*	*tremolo	*	*tremolo	*	*	*	*	*	*	*	*	*	*	*	*	*	*	*
2.ryy	8D\L	.	4D\	.	.	.	8d\L	-ty-	.	8dd\L	-ty-	.	8ddL 8d\	.	8ff#L 8dd\	.	8dddL 8dd\	.	8D\L	.	8D\L	.	8ddL 8f#/	.	8dL 8F#/	.	8dL 8D\	.	8ddL 8f#\	.	8ddL 8f#/	8f#\L	.	8dddLyy 8ff#/yy	8ff#\Lyy	.
.	8D\	.	.	.	.	.	8c#\J	.	.	8cc#\J	.	.	8cc#\	.	8ff# 8dd\	.	8ccc#\	.	8D\	.	8D\	.	8ff# 8f#/	.	8f# 8F#/	.	8c# 8D\	.	8cc# 8f#\	.	8cc#/	8cc#\	.	8ccc#/yy	8ccc#\yy	.
.	8D\J	.	8D\	.	.	.	8B\	-lio-	.	8b\	-lio-	.	8b\J	.	8ff#J 8dd\	.	8bb\J	.	8D\J	.	8D\J	.	8ddJ 8f#/	.	8dJ 8F#/	.	8BJ 8D\	.	8bJ 8f#\	.	8b/J	8b\J	.	8bb/Jyy	8bb\Jyy	.
*	*	*	*	*	*	*	*	*	*	*	*	*	*	*	*Xtremolo	*	*	*	*Xtremolo	*	*Xtremolo	*	*	*	*	*	*	*	*	*	*	*	*	*	*	*
.	8D\	.	4D\	.	.	.	8A\	-nie,	.	8a\	-nie,	.	8a\	.	8ff# 8dd\	.	8aa\	.	8D\	.	8D\	.	8a 8f#/	.	8A 8F#/	.	8A 8D\	.	8a 8f#\	.	8a/	8a\	.	8aa/yy	8aa\yy	.
.	8r	.	.	.	.	.	8r	.	.	8r	.	.	8r	.	8r	.	8r	.	8r	.	8r	.	8r	.	8r	.	8r	.	8r	.	8r	8ryy	.	8ryy	8ryyyy	.
.	8D\	.	8B\	.	.	.	8B\	ach	.	8b\	ach	.	8b 8d\	.	8dd 8f#/	.	8bb 8dd\	.	8D\	.	8D\	.	8f# 8d/	.	8d 8F#/	.	8B 8D\	.	8b 8d/	.	8b/	8b\	.	8bb/yy	8bb\yy	.
=14	=14	=14	=14	=14	=14	=14	=14	=14	=14	=14	=14	=14	=14	=14	=14	=14	=14	=14	=14	=14	=14	=14	=14	=14	=14	=14	=14	=14	=14	=14	=14	=14	=14	=14	=14	=14
2.ryy	4D\	.	4B\	.	.	.	4B\	spiesz	.	4b\	spiesz	.	4b 4d\	.	4dd 4f#/	.	4bb 4dd\	.	4D\	.	4D\	.	4f# 4d/	.	4d 4F#/	.	4B 4D\	.	4b 4d/	.	4b/	4b\	.	4bb/yy	4bb\yy	.
!	!	!	!	!	!	!	!	!	!	!	!	!	!	!	!	!	!	!	!	!	!	!	!	!	!LO:SIC:v:n=2:s=8F#/	!	!	!	!	!	!	!	!	!	!	!
.	8D\	.	8B\	.	.	.	8B\	ach	.	8b\	ach	.	8b 8d\	.	8dd 8f#/	.	8bb 8dd\	.	8D\	.	8D\	.	8f# 8d/	.	8d 8G/	.	8B 8D\	.	8b 8d/	.	8b/	8b\	.	8bb/yy	8bb\yy	.
.	4D\	.	4B\	.	.	.	4B\	spiesz	.	4b\	spiesz	.	4b 4d\	.	4dd 4f#/	.	4bb 4dd\	.	4D\	.	4D\	.	4f# 4d/	.	4d 4F#/	.	4B 4D\	.	4b 4d/	.	4b/	4b\	.	4bb/yy	4bb\yy	.
.	8D\	.	8D\	.	.	.	8B\	pocz-	.	8b\	pocz-	.	8b 8d\	.	8dd 8f#/	.	8bb 8dd\	.	8D\	.	8D\	.	8f# 8d/	.	8d 8F#/	.	8B 8D\	.	8b 8d/	.	8b/	8b\	.	8bb/yy	8bb\yy	.
=15	=15	=15	=15	=15	=15	=15	=15	=15	=15	=15	=15	=15	=15	=15	=15	=15	=15	=15	=15	=15	=15	=15	=15	=15	=15	=15	=15	=15	=15	=15	=15	=15	=15	=15	=15	=15
*	*	*	*	*	*	*	*	*	*	*	*	*	*	*	*	*	*	*	*	*	*	*	*	*	*^	*	*	*	*	*	*	*	*	*	*	*
*	*	*	*	*	*	*	*	*	*	*	*	*	*tremolo	*	*	*	*	*	*tremolo	*	*tremolo	*	*tremolo	*	*	*	*	*	*	*	*	*	*	*	*	*	*
2.ryy	8D\L	.	4D\	.	.	.	8B/L	-ty-	.	8b\L	-ty-	.	8ddL 8d\	.	8b/L	.	8bb\L	.	8D\L	.	8D\L	.	8f#L 8d/	.	8dL 8F#/	4.ryy	.	8BL 8D\	.	8bL 8d/	.	8b/L	8b\L	.	8bb/Lyy	8bb\Lyy	.
.	8D\	.	.	.	.	.	8A/J	.	.	8a\J	.	.	8dd 8d\	.	8a/	.	8aa\	.	8D\	.	8D\	.	8f# 8d/	.	8d 8F#/	.	.	8A 8D\	.	8a 8d/	.	8a/	8a\	.	8aa/yy	8aa\yy	.
.	8D\J	.	8D\	.	.	.	8G/	-lio-	.	8g\	-lio-	.	8ddJ 8d\	.	8g/J	.	8gg\J	.	8D\J	.	8D\J	.	8f#J 8d/	.	8dJ 8A/	.	.	8GJ 8D\	.	8gJ 8d/	.	8g/J	8g\J	.	8gg/Jyy	8gg\Jyy	.
*	*	*	*	*	*	*	*	*	*	*	*	*	*Xtremolo	*	*	*	*	*	*Xtremolo	*	*Xtremolo	*	*Xtremolo	*	*	*	*	*	*	*	*	*	*	*	*	*	*
.	8D\	.	4D\	.	.	.	4F#/	-nie	.	4f#/	-nie	.	8dd 8d\	.	8f#/	.	8ff#\	.	8D\	.	8D\	.	8f# 8d/	.	8d/	8d\	.	8F# 8D\	.	8f# 8d/	.	8f#/	8f#\	.	8ff#/	8ff#\	.
*	*	*	*	*	*	*	*	*Xij	*	*	*	*	*	*	*	*	*	*	*	*	*	*	*	*	*	*	*	*	*	*	*	*	*	*	*	*	*
.	8r	.	.	.	.	.	.	.	.	.	.	.	8r	.	8r	.	8r	.	8r	.	8r	.	8r	.	8r	8ryy	.	8r	.	8r	.	8r	8ryy	.	8r	8ryy	.
.	8r	.	8r	.	.	.	8r	.	.	8r	.	.	8r	.	8r	.	8r	.	8r	.	8r	.	8r	.	8r	8ryy	.	8r	.	8r	.	8r	8ryy	.	8r	8ryy	.
*	*	*	*	*	*	*	*	*	*	*	*	*	*	*	*	*	*	*	*	*	*	*	*	*	*v	*v	*	*	*	*	*	*	*	*	*v	*v	*
=16	=16	=16	=16	=16	=16	=16	=16	=16	=16	=16	=16	=16	=16	=16	=16	=16	=16	=16	=16	=16	=16	=16	=16	=16	=16	=16	=16	=16	=16	=16	=16	=16	=16	=16	=16
*	*	*	*	*	*	*	*	*	*	*	*	*	*	*	*	*	*	*	*	*	*	*	*	*	*	*	*^	*	*	*	*	*	*	*	*
2.ryy	4D\	.	8D\	Szczę-	.	.	2.r	.	.	2.r	.	.	8D/L	.	8d/L	.	2.r	.	2.r	.	2.r	.	2.r	.	8dL 8D/	.	8D/L	8D\L	.	2.r	.	8d/L	8d\L	.	2.r	.
.	.	.	8D\	-ście	.	.	.	.	.	.	.	.	16D/L	.	16d/L	.	.	.	.	.	.	.	.	.	16dL 16D/	.	16D/L	16D\L	.	.	.	16d/L	16d\L	.	.	.
.	.	.	.	.	.	.	.	.	.	.	.	.	16D/J	.	16d/J	.	.	.	.	.	.	.	.	.	16dJ 16D/	.	16D/J	16D\J	.	.	.	16d/J	16d\J	.	.	.
.	8D\	.	8D\	nam	.	.	.	.	.	.	.	.	8D/J	.	8d/J	.	.	.	.	.	.	.	.	.	8dJ 8D/	.	8D/J	8D\J	.	.	.	8d/J	8d\J	.	.	.
*	*	*	*	*	*	*	*	*	*	*	*	*	*	*	*tremolo	*	*	*	*	*	*	*	*	*	*	*	*	*	*	*	*	*	*	*	*	*
.	8F#\L	.	8F#\	nio-	.	.	.	.	.	.	.	.	8F#/L	.	16f#/LL	.	.	.	.	.	.	.	.	.	8f#L 8F#/	.	8F#/L	8F#\L	.	.	.	8f#/L	8f#\L	.	.	.
.	.	.	.	.	.	.	.	.	.	.	.	.	.	.	16f#/	.	.	.	.	.	.	.	.	.	.	.	.	.	.	.	.	.	.	.	.	.
.	8D\	.	8D\	-są	.	.	.	.	.	.	.	.	8D/	.	16d/	.	.	.	.	.	.	.	.	.	8d 8D/	.	8D/	8D\	.	.	.	8d/	8d\	.	.	.
.	.	.	.	.	.	.	.	.	.	.	.	.	.	.	16d/	.	.	.	.	.	.	.	.	.	.	.	.	.	.	.	.	.	.	.	.	.
.	8F#\J	.	8F#\	twe	.	.	.	.	.	.	.	.	8F#/J	.	16f#/	.	.	.	.	.	.	.	.	.	8f#J 8F#/	.	8F#/J	8F#\J	.	.	.	8f#/J	8f#\J	.	.	.
.	.	.	.	.	.	.	.	.	.	.	.	.	.	.	16f#/JJ	.	.	.	.	.	.	.	.	.	.	.	.	.	.	.	.	.	.	.	.	.
*	*	*	*	*	*	*	*	*	*	*	*	*	*	*	*Xtremolo	*	*	*	*	*	*	*	*	*	*	*	*	*	*	*	*	*	*	*	*	*
*	*	*	*	*	*	*	*	*	*	*	*	*	*	*	*	*	*	*	*	*	*	*	*	*	*	*	*v	*v	*	*	*	*	*	*	*	*
!!LO:PB:g=original
=17	=17	=17	=17	=17	=17	=17	=17	=17	=17	=17	=17	=17	=17	=17	=17	=17	=17	=17	=17	=17	=17	=17	=17	=17	=17	=17	=17	=17	=17	=17	=17	=17	=17	=17	=17
*	*	*	*	*	*	*	*	*	*	*	*	*	*	*	*	*	*	*	*	*	*	*	*^	*	*	*	*	*	*	*	*	*	*	*^	*
*	*2\right	*	*	*	*	*	*	*	*	*	*	*	*	*	*	*	*	*	*	*	*	*	*	*	*	*	*	*	*	*	*	*	*	*	*	*	*
*	*tremolo	*	*	*	*	*	*	*ij	*	*	*	*	*	*	*	*	*tremolo	*	*tremolo	*	*	*	*	*	*	*tremolo	*	*tremolo	*	*	*	*	*	*	*	*	*
2.ryy	8A\L	.	4.A\	dło-	.	.	8A\	ſzczę-	.	8a\	ſzczę-	.	16A\LL	.	16a\LL	.	16eeLL 16a\	.	16AA/LL	.	4A\	.	8a/L	8a\L	.	8eL 8A\	.	8AL 8AA/	.	8eeL 8cc#\	.	8a/	8a\	.	8aa/L	8aa\L	.
.	.	.	.	.	.	.	.	.	.	.	.	.	16e\	.	16cc#\	.	16ee 16a\	.	16AA/	.	.	.	.	.	.	.	.	.	.	.	.	.	.	.	.	.	.
.	8A\	.	.	.	.	.	8A\	-śćie	.	8a\	-śćie	.	16e\	.	16cc#\	.	16ee 16a\	.	16AA/	.	.	.	16a/L	16a\L	.	8e 8A\	.	8A 8AA/	.	16eeL 16cc#\	.	16cc#LL 16e/	8ryy	.	16aa/L	16aa\L	.
.	.	.	.	.	.	.	.	.	.	.	.	.	16e\	.	16cc#\	.	16ee 16a\	.	16AA/	.	.	.	16a/J	16a\J	.	.	.	.	.	16eeJ 16cc#\	.	16cc#J 16e/	.	.	16aa/J	16aa\J	.
.	8A\	.	.	.	.	.	8A\	nam	.	8a\	nam	.	16e\	.	16cc#\	.	16ee 16a\	.	16AA/	.	8A\	.	8a/J	8a\J	.	8eJ 8A\	.	8A 8AA/	.	8eeJ 8cc#\	.	8cc#J 8e/	8ryy	.	8aa/J	8aa\J	.
.	.	.	.	.	.	.	.	.	.	.	.	.	16e\JJ	.	16cc#\JJ	.	16eeJJ 16a\	.	16AA/	.	.	.	.	.	.	.	.	.	.	.	.	.	.	.	.	.	.
*	*	*	*	*	*	*	*	*	*	*	*	*	*	*	*	*	*Xtremolo	*	*	*	*tremolo	*	*tremolo	*tremolo	*	*Xtremolo	*	*	*	*	*	*	*	*	*	*	*
.	8A\	.	4AA/	-nie	.	.	8A\	nio-	.	8a\	nio-	.	8e\L	.	8cc#\L	.	8eeL 8a\	.	16AA/	.	8A\L	.	8a/L	8a\L	.	8eL 8A\	.	8A 8AA/	.	8eeL 8cc#\	.	8cc#L 8e/	4ryy	.	8aa/L	8aa\L	.
.	.	.	.	.	.	.	.	.	.	.	.	.	.	.	.	.	.	.	16AA/	.	.	.	.	.	.	.	.	.	.	.	.	.	.	.	.	.	.
.	8A\	.	.	.	.	.	8A\	-są	.	8a\	-są	.	8f#\	.	8dd\	.	8ff# 8a\	.	16AA/	.	8A\	.	8a/	8a\	.	8d 8F#\	.	8A 8AA/	.	8ff# 8dd\	.	8dd 8f#/	.	.	8aa/	8aa\	.
.	.	.	.	.	.	.	.	.	.	.	.	.	.	.	.	.	.	.	16AA/	.	.	.	.	.	.	.	.	.	.	.	.	.	.	.	.	.	.
.	8A\J	.	8r	.	.	.	8A\	twe	.	8a\	twe	.	8e\J	.	8ee\J	.	8ggJ 8a\	.	16AA/	.	8A\J	.	8a/J	8a\J	.	8eJ 8A\	.	8AJ 8AA/	.	8ggJ 8ee\	.	8eeJ 8g/	8ryy	.	8aa/J	8aa\J	.
.	.	.	.	.	.	.	.	.	.	.	.	.	.	.	.	.	.	.	16AA/JJ	.	.	.	.	.	.	.	.	.	.	.	.	.	.	.	.	.	.
*	*Xtremolo	*	*	*	*	*	*	*	*	*	*	*	*	*	*	*	*	*	*Xtremolo	*	*Xtremolo	*	*Xtremolo	*Xtremolo	*	*	*	*Xtremolo	*	*	*	*	*	*	*	*	*
*	*	*	*	*	*	*	*	*	*	*	*	*	*	*	*	*	*	*	*	*	*	*	*v	*v	*	*	*	*	*	*	*	*	*	*	*v	*v	*
=18	=18	=18	=18	=18	=18	=18	=18	=18	=18	=18	=18	=18	=18	=18	=18	=18	=18	=18	=18	=18	=18	=18	=18	=18	=18	=18	=18	=18	=18	=18	=18	=18	=18	=18	=18
*	*	*	*	*	*	*	*	*	*	*	*	*	*	*	*	*	*	*	*	*	*	*	*	*	*	*	*^	*	*	*	*	*	*	*	*
2.ryy	4D\	.	8D\	już	.	.	4.f#\	dło-	.	4.dd\	dło-	.	8d\	.	8dd\	.	8ff# 8a\	.	8D\	.	8D\	.	8ff# 8dd\	.	8dL 8F#/	.	8D/L	8D\L	.	8ff# 8dd\	.	8dd 8f#/	8ryy	.	8fff# 8ddd\	.
.	.	.	8D\	cię	.	.	.	.	.	.	.	.	16D/LL	.	16d/LL	.	16d/LL	.	8r	.	8r	.	8r	.	16dL 16D/	.	8D/	8D\	.	8r	.	16d/LL	16d\LL	.	8r	.
.	.	.	.	.	.	.	.	.	.	.	.	.	16D/J	.	16d/J	.	16d/J	.	.	.	.	.	.	.	16dJ 16D/	.	.	.	.	.	.	16d/J	16d\J	.	.	.
.	8D\	.	8D\	od	.	.	.	.	.	.	.	.	8D/J	.	8d/J	.	8d/J	.	8r	.	8r	.	8r	.	8dJ 8D/	.	8D/J	8D\J	.	8r	.	8d/J	8d\J	.	8r	.
*	*	*	*	*	*	*	*	*	*	*	*	*	*tremolo	*	*tremolo	*	*tremolo	*	*	*	*	*	*	*	*	*	*	*	*	*	*	*	*	*	*	*
.	8F#\L	.	8F#\	ra-	.	.	4d\	-nie,	.	4a\	-nie,	.	16F#/LL	.	16f#/LL	.	16f#/LL	.	4r	.	4r	.	4r	.	8f#L 8F#/	.	8F#/L	8F#\L	.	4r	.	8f#/L	8f#\L	.	4r	.
.	.	.	.	.	.	.	.	.	.	.	.	.	16F#/	.	16f#/	.	16f#/	.	.	.	.	.	.	.	.	.	.	.	.	.	.	.	.	.	.	.
.	8D\	.	8D\	-na	.	.	.	.	.	.	.	.	16D/	.	16d/	.	16d/	.	.	.	.	.	.	.	8d 8D/	.	8D/	8D\	.	.	.	8d/	8d\	.	.	.
.	.	.	.	.	.	.	.	.	.	.	.	.	16D/	.	16d/	.	16d/	.	.	.	.	.	.	.	.	.	.	.	.	.	.	.	.	.	.	.
.	8F#\J	.	8F#\	cze-	.	.	8r	.	.	8r	.	.	16F#/	.	16f#/	.	16f#/	.	8r	.	8r	.	8r	.	8f#J 8F#/	.	8F#/J	8F#\J	.	8r	.	8f#/J	8f#\J	.	8r	.
.	.	.	.	.	.	.	.	.	.	.	.	.	16F#/JJ	.	16f#/JJ	.	16f#/JJ	.	.	.	.	.	.	.	.	.	.	.	.	.	.	.	.	.	.	.
*	*	*	*	*	*	*	*	*Xij	*	*	*	*	*Xtremolo	*	*Xtremolo	*	*	*	*	*	*	*	*	*	*	*	*	*	*	*	*	*	*	*	*	*
*	*	*	*	*	*	*	*	*	*	*	*	*	*	*	*	*	*	*	*	*	*	*	*	*	*	*	*v	*v	*	*	*	*	*	*	*	*
=19	=19	=19	=19	=19	=19	=19	=19	=19	=19	=19	=19	=19	=19	=19	=19	=19	=19	=19	=19	=19	=19	=19	=19	=19	=19	=19	=19	=19	=19	=19	=19	=19	=19	=19	=19
*	*	*	*	*	*	*	*	*	*	*	*	*	*	*	*	*	*	*	*tremolo	*	*	*	*	*	*tremolo	*	*tremolo	*	*	*	*	*	*	*	*
!	!LO:TX:t=P:problem:mixed beam	!	!	!	!	!	!	!	!	!	!	!	!	!	!	!	!	!	!	!	!	!	!	!	!	!	!	!	!	!	!	!	!	!	!
2.ryy	8A\L	.	4.A\	-ka-	.	.	8A\	już	.	8a\	juʒ	.	16A\LL	.	16a\LL	.	16eeLL 16a\	.	16AA/LL	.	4A\	.	8eeL 8a\	.	8eL 8A\	.	8AL 8AA/	.	8eeL 8cc#\	.	8a/	8a\	.	8eeeL 8ccc#\	.
.	.	.	.	.	.	.	.	.	.	.	.	.	16e\	.	16cc#\	.	16ee 16a\	.	16AA/	.	.	.	.	.	.	.	.	.	.	.	.	.	.	.	.
.	8AA/	.	.	.	.	.	8A\	cię	.	8a\	cię	.	16e\	.	16cc#\	.	16ee 16a\	.	16AA/	.	.	.	16eeL 16a\	.	8e 8A\	.	8A 8AA/	.	16eeL 16cc#\	.	16cc#LL 16e/	8ryy	.	16eeeL 16ccc#\	.
.	.	.	.	.	.	.	.	.	.	.	.	.	16e\	.	16cc#\	.	16ee 16a\	.	16AA/	.	.	.	16eeJ 16a\	.	.	.	.	.	16eeJ 16cc#\	.	16cc#J 16e/	.	.	16eeeJ 16ccc#\	.
.	8AA/J	.	.	.	.	.	8A\	cze-	.	8a\	od	.	16e\	.	16cc#\	.	16ee 16a\	.	16AA/	.	8A\	.	8eeJ 8a\	.	8eJ 8A\	.	8A 8AA/	.	8eeJ 8cc#\	.	8cc#J 8e/	8ryy	.	8eeeJ 8ccc#\	.
.	.	.	.	.	.	.	.	.	.	.	.	.	16e\JJ	.	16cc#\JJ	.	16eeJJ 16a\	.	16AA/	.	.	.	.	.	.	.	.	.	.	.	.	.	.	.	.
*	*tremolo	*	*	*	*	*	*	*	*	*	*	*	*	*	*tremolo	*	*	*	*	*	*tremolo	*	*	*	*Xtremolo	*	*	*	*	*	*	*	*	*	*
.	8AA/L	.	4AA/	-my	.	.	8A\	-ka-	.	8a\	ra-	.	8e\L	.	16cc#\LL	.	16eeLL 16a\	.	16AA/	.	8A\L	.	8eeL 8a\	.	8eL 8A\	.	8A 8AA/	.	8eeL 8cc#\	.	8cc#L 8e/	4ryy	.	8eeeL 8ccc#\	.
.	.	.	.	.	.	.	.	.	.	.	.	.	.	.	16cc#\	.	16ee 16a\	.	16AA/	.	.	.	.	.	.	.	.	.	.	.	.	.	.	.	.
.	8AA/	.	.	.	.	.	8A\	-my,	.	8a\	-na	.	8d\	.	16dd\	.	16ff# 16a\	.	16AA/	.	8A\	.	8dd 8f#\	.	8f# 8d\	.	8A 8AA/	.	8ff# 8dd\	.	8dd 8f#/	.	.	8fff# 8ddd\	.
.	.	.	.	.	.	.	.	.	.	.	.	.	.	.	16dd\J	.	16ff# 16a\	.	16AA/	.	.	.	.	.	.	.	.	.	.	.	.	.	.	.	.
*	*	*	*	*	*	*	*	*	*	*	*	*	*	*	*Xtremolo	*	*	*	*	*	*	*	*	*	*	*	*	*	*	*	*	*	*	*	*
.	8AA/J	.	8r	.	.	.	8A\	więc	.	8a\	cze-	.	8e\J	.	8ee\J|	.	16gg 16a\	.	16AA/	.	8A\J	.	8eeJ 8a\	.	8gJ 8e\	.	8AJ 8AA/	.	8ggJ 8ee\	.	8eeJ 8g/	8ryy	.	8gggJ 8eee\	.
.	.	.	.	.	.	.	.	.	.	.	.	.	.	.	.	.	16ggJJ 16a\	.	16AA/JJ	.	.	.	.	.	.	.	.	.	.	.	.	.	.	.	.
*	*Xtremolo	*	*	*	*	*	*	*	*	*	*	*	*	*	*	*	*	*	*Xtremolo	*	*Xtremolo	*	*	*	*	*	*Xtremolo	*	*	*	*	*	*	*	*
*	*	*	*	*	*	*	*	*	*	*	*	*	*	*	*	*	*	*	*	*	*	*	*	*	*	*	*	*	*	*	*v	*v	*	*	*
=20	=20	=20	=20	=20	=20	=20	=20	=20	=20	=20	=20	=20	=20	=20	=20	=20	=20	=20	=20	=20	=20	=20	=20	=20	=20	=20	=20	=20	=20	=20	=20	=20	=20	=20
*	*	*	*	*	*	*	*	*	*	*	*	*	*	*	*	*	*	*	*	*	*	*	*	*	*	*	*^	*	*	*	*	*	*	*
*	*	*	*	*	*	*	*	*	*	*	*	*	*	*	*tremolo	*	*2\right	*	*	*	*	*	*	*	*2\right	*	*	*	*	*	*	*	*	*2\right	*
2.ryy	4D\	.	4.d^^\	spiesz!	.	.	4.f# 4.d^^\	spiesʒ!	.	4dd\	-ka-	.	4d\	.	16ddLL 16f#/	.	16ff#LL 16dd\	.	4D\	.	4D\	.	4dd 4f#/	.	2.f# 2.d^^\	.	4d 4D\	4ryy	.	[2.ff# [>2.dd\	.	[2.dd [2.f#/	.	[2.fff# [>2.ddd\	.
.	.	.	.	.	.	.	.	.	.	.	.	.	.	.	16dd 16f#/	.	16ff# 16dd\	.	.	.	.	.	.	.	.	.	.	.	.	.	.	.	.	.	.
.	.	.	.	.	.	.	.	.	.	.	.	.	.	.	16dd 16f#/	.	16ff# 16dd\	.	.	.	.	.	.	.	.	.	.	.	.	.	.	.	.	.	.
.	.	.	.	.	.	.	.	.	.	.	.	.	.	.	16dd 16f#/	.	16ff# 16dd\	.	.	.	.	.	.	.	.	.	.	.	.	.	.	.	.	.	.
.	8d\	.	.	.	.	.	.	.	.	8a\	-my,	.	8d\	.	16dd 16f#/	.	16ff# 16dd\	.	8r	.	8r	.	8r	.	.	.	8d/	8d\	.	.	.	.	.	.	.
.	.	.	.	.	.	.	.	.	.	.	.	.	.	.	16dd 16f#/	.	16ff# 16dd\	.	.	.	.	.	.	.	.	.	.	.	.	.	.	.	.	.	.
.	4d\	.	4r	.	.	.	4r	.	.	4.ff# 4.dd^^\	spiesz!	.	4d\	.	16dd 16f#/	.	16ff# 16dd\	.	4r	.	4.d^^\	.	[4.ff# [>4.dd^^\	.	.	.	4d/	4d\	.	.	.	.	.	.	.
.	.	.	.	.	.	.	.	.	.	.	.	.	.	.	16dd 16f#/	.	16ff# 16dd\	.	.	.	.	.	.	.	.	.	.	.	.	.	.	.	.	.	.
.	.	.	.	.	.	.	.	.	.	.	.	.	.	.	16dd 16f#/	.	16ff# 16dd\	.	.	.	.	.	.	.	.	.	.	.	.	.	.	.	.	.	.
.	.	.	.	.	.	.	.	.	.	.	.	.	.	.	16dd 16f#/	.	16ff# 16dd\	.	.	.	.	.	.	.	.	.	.	.	.	.	.	.	.	.	.
.	8d\	.	8d\	ach	.	.	8r	.	.	.	.	.	8d\	.	16dd 16f#/	.	16ff# 16dd\	.	8r	.	.	.	.	.	.	.	8d/	8d\	.	.	.	.	.	.	.
.	.	.	.	.	.	.	.	.	.	.	.	.	.	.	16ddJJ 16f#/	.	16ff#JJ 16dd\	.	.	.	.	.	.	.	.	.	.	.	.	.	.	.	.	.	.
=21	=21	=21	=21	=21	=21	=21	=21	=21	=21	=21	=21	=21	=21	=21	=21	=21	=21	=21	=21	=21	=21	=21	=21	=21	=21	=21	=21	=21	=21	=21	=21	=21	=21	=21	=21
*	*	*	*	*	*	*	*	*	*	*	*	*	*	*	*	*	*	*	*tremolo	*	*	*	*	*	*	*	*	*	*	*	*	*	*	*	*
2.ryy	8c#\L	.	8c#\L	spiesʒ	.	.	4.f# 4.d^^\	spiesz!	.	4r	.	.	8c#/L	.	16ddLL 16f#/	.	16ff#LL 16dd\	.	8D\L	.	8c#\L	.	4ff#] 4dd\]	.	2.f# 2.d^^\	.	8c#/L	8c#\L	.	2.ff#_ 2.dd\_>	.	2.dd_ 2.f#/_	.	2.fff#_ 2.ddd\_>	.
.	.	.	.	.	.	.	.	.	.	.	.	.	.	.	16dd 16f#/	.	16ff# 16dd\	.	.	.	.	.	.	.	.	.	.	.	.	.	.	.	.	.	.
.	8B\	.	8B\J	.	.	.	.	.	.	.	.	.	8B/	.	16dd 16f#/	.	16ff# 16dd\	.	8D\	.	8B\	.	.	.	.	.	8B/	8B\	.	.	.	.	.	.	.
.	.	.	.	.	.	.	.	.	.	.	.	.	.	.	16dd 16f#/	.	16ff# 16dd\	.	.	.	.	.	.	.	.	.	.	.	.	.	.	.	.	.	.
.	8A#X\J	.	8A#X\	się,	.	.	.	.	.	8r	.	.	8A#X/J	.	16dd 16f#/	.	16ff# 16dd\	.	8D\J	.	8A#X\J	.	8r	.	.	.	8A#X/J	8A#\J	.	.	.	.	.	.	.
.	.	.	.	.	.	.	.	.	.	.	.	.	.	.	16dd 16f#/	.	16ff# 16dd\	.	.	.	.	.	.	.	.	.	.	.	.	.	.	.	.	.	.
*	*	*	*	*	*	*	*	*	*	*	*	*	*	*	*	*	*	*	*Xtremolo	*	*	*	*	*	*	*	*	*	*	*	*	*	*	*	*
.	4B\	.	4B\	spiesʒ!	.	.	4r	.	.	4.ff# 4.dd^^\	spiesz!	.	4B/	.	16dd 16f#/	.	16ff# 16dd\	.	4D\	.	4B\	.	[4.ff# [>4.dd^^\	.	.	.	4B/	4B\	.	.	.	.	.	.	.
.	.	.	.	.	.	.	.	.	.	.	.	.	.	.	16dd 16f#/	.	16ff# 16dd\	.	.	.	.	.	.	.	.	.	.	.	.	.	.	.	.	.	.
.	.	.	.	.	.	.	.	.	.	.	.	.	.	.	16dd 16f#/	.	16ff# 16dd\	.	.	.	.	.	.	.	.	.	.	.	.	.	.	.	.	.	.
.	.	.	.	.	.	.	.	.	.	.	.	.	.	.	16dd 16f#/	.	16ff# 16dd\	.	.	.	.	.	.	.	.	.	.	.	.	.	.	.	.	.	.
.	8BB/	.	8r	.	.	.	8r	.	.	.	.	.	8r	.	16dd 16f#/	.	16ff# 16dd\	.	8r	.	8r	.	.	.	.	.	8r	8ryy	.	.	.	.	.	.	.
.	.	.	.	.	.	.	.	.	.	.	.	.	.	.	16ddJJ 16f#/	.	16ff#JJ 16dd\	.	.	.	.	.	.	.	.	.	.	.	.	.	.	.	.	.	.
=22	=22	=22	=22	=22	=22	=22	=22	=22	=22	=22	=22	=22	=22	=22	=22	=22	=22	=22	=22	=22	=22	=22	=22	=22	=22	=22	=22	=22	=22	=22	=22	=22	=22	=22	=22
!	!	!	!	!	!	!	!	!	!	!	!	!	!	!	!	!	!	!	!	!	!	!	!	!	!LO:TX:t=P:problem:brak początku ligatur	!	!	!	!	!	!	!	!	!	!
2.ryy	4BB/	.	4.B^^\	spiesz!	.	.	4.f# 4.d^^\	spiesz!	.	4r	.	.	4B/	.	16ddLL 16f#/	.	16ff#LL 16dd\	.	4D\	.	4BB/	.	4ff#] 4dd\]	.	[2.f# [2.d^^\	.	4BB/	4BB\	.	2.ff#_ 2.dd\_>	.	2.dd_ 2.f#/_	.	2.fff#_ 2.ddd\_>	.
.	.	.	.	.	.	.	.	.	.	.	.	.	.	.	16dd 16f#/	.	16ff# 16dd\	.	.	.	.	.	.	.	.	.	.	.	.	.	.	.	.	.	.
.	.	.	.	.	.	.	.	.	.	.	.	.	.	.	16dd 16f#/	.	16ff# 16dd\	.	.	.	.	.	.	.	.	.	.	.	.	.	.	.	.	.	.
.	.	.	.	.	.	.	.	.	.	.	.	.	.	.	16dd 16f#/	.	16ff# 16dd\	.	.	.	.	.	.	.	.	.	.	.	.	.	.	.	.	.	.
.	8B\	.	.	.	.	.	.	.	.	8r	.	.	8B/	.	16dd 16f#/	.	16ff# 16dd\	.	8r	.	8r	.	8r	.	.	.	8B/	8B\	.	.	.	.	.	.	.
.	.	.	.	.	.	.	.	.	.	.	.	.	.	.	16dd 16f#/	.	16ff# 16dd\	.	.	.	.	.	.	.	.	.	.	.	.	.	.	.	.	.	.
.	4B\	.	4r	.	.	.	4r	.	.	4.ff# 4.dd^^\	spiesz!	.	4B/	.	16dd 16f#/	.	16ff# 16dd\	.	4r	.	4.B^^\	.	[4.ff# [>4.dd^^\	.	.	.	4B/	4B\	.	.	.	.	.	.	.
.	.	.	.	.	.	.	.	.	.	.	.	.	.	.	16dd 16f#/	.	16ff# 16dd\	.	.	.	.	.	.	.	.	.	.	.	.	.	.	.	.	.	.
.	.	.	.	.	.	.	.	.	.	.	.	.	.	.	16dd 16f#/	.	16ff# 16dd\	.	.	.	.	.	.	.	.	.	.	.	.	.	.	.	.	.	.
.	.	.	.	.	.	.	.	.	.	.	.	.	.	.	16dd 16f#/	.	16ff# 16dd\	.	.	.	.	.	.	.	.	.	.	.	.	.	.	.	.	.	.
.	8B\	.	8B\	ach	.	.	8r	.	.	.	.	.	8B/	.	16dd 16f#/	.	16ff# 16dd\	.	8r	.	.	.	.	.	.	.	8B/	8B\	.	.	.	.	.	.	.
.	.	.	.	.	.	.	.	.	.	.	.	.	.	.	16ddJJ 16f#/	.	16ff#JJ 16dd\	.	.	.	.	.	.	.	.	.	.	.	.	.	.	.	.	.	.
!!LO:PB:g=original
=23	=23	=23	=23	=23	=23	=23	=23	=23	=23	=23	=23	=23	=23	=23	=23	=23	=23	=23	=23	=23	=23	=23	=23	=23	=23	=23	=23	=23	=23	=23	=23	=23	=23	=23	=23
*	*	*	*	*	*	*	*	*	*	*^	*	*	*	*	*	*	*	*	*	*	*	*	*	*	*^	*	*	*	*	*^	*	*^	*	*	*
*	*	*	*	*	*	*	*	*	*	*	*	*	*	*	*	*	*	*	*	*tremolo	*	*	*	*	*	*	*	*	*	*	*	*	*	*	*	*	*	*	*
!	!	!	!	!	!	!	!	!	!	!	!	!	!	!	!	!	!	!	!	!	!	!	!	!LO:TX:t=P:problem:koniec dolnej ligatury na dole	!	!	!	!	!	!	!	!LO:TX:t=P:problem:koniec dolnej ligatury na dole	!	!	!	!	!	!LO:TX:t=P:problem:brak zakończenia dolnej ligatury	!
2.ryy	8A\L	.	8A\L	spiesʒ	.	.	4.f# 4.d^^\	spiesʒ	.	4r	4ryy	.	.	8a\L	.	16ddLL 16f#/	.	16ff#LL 16dd\	.	8D\L	.	8A\L	.	4ff#] 4dd\]	.	4.f#^^/]	4.d\]	.	8AL 8AA\	4.ryy	.	4.ff#] 4.dd\]	4.ryy	.	4.dd/]	8f#\L]	.	4.fff#] 4.ddd\]	.
.	.	.	.	.	.	.	.	.	.	.	.	.	.	.	.	16dd 16f#/	.	16ff# 16dd\	.	.	.	.	.	.	.	.	.	.	.	.	.	.	.	.	.	.	.	.	.
.	8G\	.	8G\J	.	.	.	.	.	.	.	.	.	.	8g\	.	16dd 16f#/	.	16ff# 16dd\	.	8D\	.	8G\	.	.	.	.	.	.	8G 8GG\	.	.	.	.	.	.	8a\	.	.	.
.	.	.	.	.	.	.	.	.	.	.	.	.	.	.	.	16dd 16f#/	.	16ff# 16dd\	.	.	.	.	.	.	.	.	.	.	.	.	.	.	.	.	.	.	.	.	.
.	8F#\J	.	8F#\	się,	.	.	.	.	.	8r	8ryy	.	.	8f#\J	.	16dd 16f#/	.	16ff# 16dd\	.	8D\J	.	8F#\J	.	8r	.	.	.	.	8F#J 8FF#\	.	.	.	.	.	.	8dd\J	.	.	.
.	.	.	.	.	.	.	.	.	.	.	.	.	.	.	.	16ddJJ 16f#/	.	16ff#JJ 16dd\	.	.	.	.	.	.	.	.	.	.	.	.	.	.	.	.	.	.	.	.	.
*	*	*	*	*	*	*	*	*	*	*	*	*	*	*tremolo	*	*	*	*	*	*	*	*	*	*	*	*	*	*	*	*	*	*	*	*	*	*	*	*	*
.	8F#\L	.	8F#\L	spiesʒ,	.	.	4r	.	.	8ff#\L	8f#\L	spiesz,	.	16f#\LL	.	16ff#\LL	.	16ff#\LL	.	4D\	.	8F#\L	.	4r	.	8f#/L	8f#\L	.	8F#/L	8F#\L	.	8ff#/L	8ff#\L	.	8ff#/L	8ff#\L	.	8fff#\L	.
.	.	.	.	.	.	.	.	.	.	.	.	.	.	16f#\	.	16ff#\	.	16ff#\	.	.	.	.	.	.	.	.	.	.	.	.	.	.	.	.	.	.	.	.	.
.	8E\	.	8E\J	.	.	.	.	.	.	8ee\J	8e\J	.	.	16e\	.	16ee\	.	16ee\	.	.	.	8E\	.	.	.	8e/	8e\	.	8E/	8E\	.	8ee/	8ee\	.	8ee/	8ee\	.	8eee\	.
.	.	.	.	.	.	.	.	.	.	.	.	.	.	16e\	.	16ee\	.	16ee\	.	.	.	.	.	.	.	.	.	.	.	.	.	.	.	.	.	.	.	.	.
.	8D\J	.	8D\	a	.	.	8d\	a	.	8dd\	8d\	a	.	16d\	.	16dd\	.	16dd\	.	8r	.	8D\J	.	8r	.	8d/J	8d\J	.	8D/J	8D\J	.	8dd/J	8dd\J	.	8dd/J	8dd\J	.	8ddd\J	.
.	.	.	.	.	.	.	.	.	.	.	.	.	.	16d\JJ	.	16dd\JJ	.	16dd\JJ	.	.	.	.	.	.	.	.	.	.	.	.	.	.	.	.	.	.	.	.	.
*	*	*	*	*	*	*	*	*	*	*	*	*	*	*Xtremolo	*	*Xtremolo	*	*Xtremolo	*	*	*	*	*	*	*	*	*	*	*	*	*	*	*	*	*	*	*	*	*
*	*	*	*	*	*	*	*	*	*	*	*	*	*	*	*	*	*	*	*	*	*	*	*	*	*	*v	*v	*	*	*	*	*v	*v	*	*	*	*	*	*
*	*	*	*	*	*	*	*	*	*	*	*	*	*	*	*	*	*	*	*	*	*	*	*	*	*	*	*	*v	*v	*	*	*	*	*	*	*	*
=24	=24	=24	=24	=24	=24	=24	=24	=24	=24	=24	=24	=24	=24	=24	=24	=24	=24	=24	=24	=24	=24	=24	=24	=24	=24	=24	=24	=24	=24	=24	=24	=24	=24	=24	=24	=24
*	*	*	*	*	*	*	*	*	*	*	*	*	*	*	*	*	*	*	*	*	*	*	*	*	*	*	*	*	*	*	*	*	*	*	*^	*
*	*	*	*	*ij	*	*	*	*ij	*	*	*	*	*	*	*	*	*	*	*	*	*	*	*	*	*	*	*	*	*	*	*	*	*	*	*	*	*
2.ryy	4A\	.	4A\	do-	.	.	4e 4c#\	do-	.	4ee 4a\	4.ryy	do-	.	4c#\	.	4ee 4a\	.	4aa 4a\	.	16AA/LL	.	4A\	.	4ee 4a\	.	4e 4A\	.	4A 4AA\	.	4aa 4a\	.	4ee 4cc#\	4.ryy	.	4.eee 4.ccc#\	4.ryy	.
.	.	.	.	.	.	.	.	.	.	.	.	.	.	.	.	.	.	.	.	16AA/	.	.	.	.	.	.	.	.	.	.	.	.	.	.	.	.	.
.	.	.	.	.	.	.	.	.	.	.	.	.	.	.	.	.	.	.	.	16AA/	.	.	.	.	.	.	.	.	.	.	.	.	.	.	.	.	.
.	.	.	.	.	.	.	.	.	.	.	.	.	.	.	.	.	.	.	.	16AA/	.	.	.	.	.	.	.	.	.	.	.	.	.	.	.	.	.
.	8A\	.	8A\	-bry	.	.	8e 8c#\	-bry	.	8ee 8a\	.	-bry	.	8e 8c#\	.	8ee 8a\	.	8aa 8a\	.	16AA/	.	8r	.	8ee 8a\	.	8e 8A\	.	8A 8AA\	.	8aa 8a\	.	8ee 8cc#\	.	.	.	.	.
.	.	.	.	.	.	.	.	.	.	.	.	.	.	.	.	.	.	.	.	16AA/JJ	.	.	.	.	.	.	.	.	.	.	.	.	.	.	.	.	.
.	8D\L	.	8D\L	tryn-	.	.	4f# 4d\	tryn-	.	8ff#/L	4a\	tryn-	.	8d\L	.	8ff#L 8a\	.	8ff#L 8a\	.	16D/LL	.	4d\	.	4ff# 4dd\	.	4f# 4d\	.	4d 4D\	.	4ff# 4a\	.	4dd/	4dd\	.	4ddd/	4fff#\	.
.	.	.	.	.	.	.	.	.	.	.	.	.	.	.	.	.	.	.	.	16D/	.	.	.	.	.	.	.	.	.	.	.	.	.	.	.	.	.
.	8F#\	.	8F#\J	.	.	.	.	.	.	8dd/J	.	.	.	8f#\	.	8dd\	.	8dd\	.	16D/	.	.	.	.	.	.	.	.	.	.	.	.	.	.	.	.	.
.	.	.	.	.	.	.	.	.	.	.	.	.	.	.	.	.	.	.	.	16D/	.	.	.	.	.	.	.	.	.	.	.	.	.	.	.	.	.
.	8D\J	.	8D\	-gelt	.	.	8f# 8d\	-gelt	.	8ff#/	8a\	-gelt	.	8d\J	.	8ff#\J	.	8ff#\J	.	16D/	.	8r	.	8ff# 8dd\	.	8f# 8d\	.	8d 8D\	.	8ff# 8a\	.	8dd 8f#/	8ryy	.	8ddd/	8fff#\	.
.	.	.	.	.	.	.	.	.	.	.	.	.	.	.	.	.	.	.	.	16D/JJ	.	.	.	.	.	.	.	.	.	.	.	.	.	.	.	.	.
*	*	*	*	*	*	*	*	*	*	*	*	*	*	*	*	*	*	*	*	*	*	*	*	*	*	*	*	*	*	*	*	*v	*v	*	*	*	*
*	*	*	*	*	*	*	*	*	*	*	*	*	*	*	*	*	*	*	*	*	*	*	*	*	*	*	*	*	*	*	*	*	*	*v	*v	*
=25	=25	=25	=25	=25	=25	=25	=25	=25	=25	=25	=25	=25	=25	=25	=25	=25	=25	=25	=25	=25	=25	=25	=25	=25	=25	=25	=25	=25	=25	=25	=25	=25	=25	=25	=25
*	*tremolo	*	*	*	*	*	*	*	*	*	*	*	*	*tremolo	*	*tremolo	*	*tremolo	*	*	*	*	*	*	*	*	*	*	*	*	*	*	*	*	*
2.ryy	8A\L	.	4.A\	da-	.	.	4.e 4.c#\	da-	.	4.ee/	4.a\	da-	.	8eL 8c#\	.	16eeLL 16cc#\	.	16aaLL 16a\	.	16AA/LL	.	(4.A\	.	(4.ee (4.a/	>	(4.e (4.A/	>	(4.c# (4.A\	>	(4.aa [4.a\	>	(4.cc# (4.e/	>	(4.eee (4.ccc#\	>
.	.	.	.	.	.	.	.	.	.	.	.	.	.	.	.	16ee 16cc#\	.	16aa 16a\	.	16AA/	.	.	.	.	.	.	.	.	.	.	.	.	.	.	.
.	8A\	.	.	.	.	.	.	.	.	.	.	.	.	8e 8c#\	.	16ee 16cc#\	.	16aa 16a\	.	16AA/	.	.	.	.	.	.	.	.	.	.	.	.	.	.	.
.	.	.	.	.	.	.	.	.	.	.	.	.	.	.	.	16ee 16cc#\	.	16aa 16a\	.	16AA/	.	.	.	.	.	.	.	.	.	.	.	.	.	.	.
.	8A\J	.	.	.	.	.	.	.	.	.	.	.	.	8eJ 8c#\	.	16ee 16cc#\	.	16aa 16a\	.	16AA/	.	.	.	.	.	.	.	.	.	.	.	.	.	.	.
.	.	.	.	.	.	.	.	.	.	.	.	.	.	.	.	16eeJJ 16cc#\	.	16aaJJ 16a\	.	16AA/JJ	.	.	.	.	.	.	.	.	.	.	.	.	.	.	.
*	*Xtremolo	*	*	*	*	*	*	*	*	*	*	*	*	*Xtremolo	*	*Xtremolo	*	*Xtremolo	*	*	*	*	*	*	*	*	*	*	*	*	*	*	*	*	*
.	4D\	.	8d\	-my	.	.	8f# 8d\	-my	.	8ff#/	8a\	-my	.	4d\	.	4ff# 4dd\	.	4ff# 4a\	.	4D/	.	4d\)	.	8ff#L 8d/))	]	8dL 8F#/))	]	8dL 8D\))	]	8ff#L 8a\])	]	8ddL 8f#/))	]	8fff#L 8ddd\))	]
.	.	.	8r	.	.	.	8r	.	.	8r	8ryy	.	.	.	.	.	.	.	.	.	.	.	.	8dd 8f#/	.	8A/	.	8A 8F#\	.	8dd 8f#\	.	8a/	.	8ddd\	.
.	8r	.	8D\	a	.	.	8d\	a	.	8dd/	8dd\	a	.	8r	.	8r	.	8r	.	8r	.	8r	.	8ff#J 8d/	.	8dJ 8F#/	.	8dJ 8D\	.	8ff#J 8a\	.	8ddJ 8f#/	.	8fff#J 8ddd\	.
=26	=26	=26	=26	=26	=26	=26	=26	=26	=26	=26	=26	=26	=26	=26	=26	=26	=26	=26	=26	=26	=26	=26	=26	=26	=26	=26	=26	=26	=26	=26	=26	=26	=26	=26	=26
2.ryy	4A\	.	4A\	do-	.	.	4e 4c#\	do-	.	4ee/	4a\	do-	.	4e 4c#\	.	4ee 4a\	.	4aa 4a\	.	16AA/LL	.	4A\	.	4ee 4a\	.	4e 4A\	.	4A 4AA/	.	4ee 4cc#\	.	4ee 4a\	.	4eee 4ccc#\	.
.	.	.	.	.	.	.	.	.	.	.	.	.	.	.	.	.	.	.	.	16AA/	.	.	.	.	.	.	.	.	.	.	.	.	.	.	.
.	.	.	.	.	.	.	.	.	.	.	.	.	.	.	.	.	.	.	.	16AA/	.	.	.	.	.	.	.	.	.	.	.	.	.	.	.
.	.	.	.	.	.	.	.	.	.	.	.	.	.	.	.	.	.	.	.	16AA/	.	.	.	.	.	.	.	.	.	.	.	.	.	.	.
.	8A\	.	8A\	-bry	.	.	8e 8c#\	-bry	.	8ee/	8a\	-bry	.	8e 8c#\	.	8ee 8a\	.	8aa 8a\	.	16AA/	.	8A\	.	8ee 8a\	.	8e 8A\	.	8A 8AA/	.	8ee 8cc#\	.	8ee 8a\	.	8eee 8ccc#\	.
.	.	.	.	.	.	.	.	.	.	.	.	.	.	.	.	.	.	.	.	16AA/JJ	.	.	.	.	.	.	.	.	.	.	.	.	.	.	.
.	8D\L	.	8D\L	tryn-	.	.	4f# 4d\	tryn-	.	8ff#/L	4a\	tryn-	.	8d\L	.	8ff#L 8a\	.	8ff#L 8a\	.	16D\LL	.	4d\	.	4ff# 4dd\	.	4f# 4d\	.	4d 4D\	.	4ff# 4dd\	.	4dd 4f#/	.	8fff#L 8ddd\	.
.	.	.	.	.	.	.	.	.	.	.	.	.	.	.	.	.	.	.	.	16D\	.	.	.	.	.	.	.	.	.	.	.	.	.	.	.
.	8F#\	.	8F#\J	.	.	.	.	.	.	8dd/J	.	.	.	8f#\	.	8dd\	.	8dd\	.	16D\	.	.	.	.	.	.	.	.	.	.	.	.	.	8bb\J	.
.	.	.	.	.	.	.	.	.	.	.	.	.	.	.	.	.	.	.	.	16D\	.	.	.	.	.	.	.	.	.	.	.	.	.	.	.
.	8D\J	.	8D\	-gielt	.	.	8f# 8d\	-gielt	.	8ff#/	8a\	-gielt	.	8d\J	.	8ff#\J	.	8ff#\J	.	16D\	.	8d\	.	8ff# 8dd\	.	8f# 8d\	.	8d 8D\	.	8ff# 8dd\	.	8dd 8f#/	.	8fff# 8ddd\	.
*	*	*	*	*Xij	*	*	*	*Xij	*	*	*	*	*	*	*	*	*	*	*	*	*	*	*	*	*	*	*	*	*	*	*	*	*	*	*
!	!	!	!	!	!	!	!	!	!	!	!	!	!	!	!	!	!	!	!	!	!	!	!	!	!	!	!	!	!	!	!	!	!	!LO:TX:a:t=[coda]	!
.	.	.	.	.	.	.	.	.	.	.	.	.	.	.	.	.	.	.	.	16D\JJ	.	.	.	.	.	.	.	.	.	.	.	.	.	.	.
=27	=27	=27	=27	=27	=27	=27	=27	=27	=27	=27	=27	=27	=27	=27	=27	=27	=27	=27	=27	=27	=27	=27	=27	=27	=27	=27	=27	=27	=27	=27	=27	=27	=27	=27	=27
2.ryy	(4.AA/	>	4.A\	da-	.	.	4.e 4.c#\	da-	.	4.ee 4.a\	4.ryy	da-	.	(4.e 4.c#\	>	(4.ee 4.a\	>	(4.aa 4.a\	>	16AA/LL	>	(4.A\	>	(4.ee (4.a/	>	(4.e (4.A\	>	(4.c# (4.AA\	>	(4.aa (4.a\	>	(4.cc# (4.e/	>	(4.eee (4.ccc#\	>
.	.	.	.	.	.	.	.	.	.	.	.	.	.	.	.	.	.	.	.	16AA/	.	.	.	.	.	.	.	.	.	.	.	.	.	.	.
.	.	.	.	.	.	.	.	.	.	.	.	.	.	.	.	.	.	.	.	16AA/	.	.	.	.	.	.	.	.	.	.	.	.	.	.	.
.	.	.	.	.	.	.	.	.	.	.	.	.	.	.	.	.	.	.	.	16AA/	.	.	.	.	.	.	.	.	.	.	.	.	.	.	.
.	.	.	.	.	.	.	.	.	.	.	.	.	.	.	.	.	.	.	.	16AA/	.	.	.	.	.	.	.	.	.	.	.	.	.	.	.
.	.	.	.	.	.	.	.	.	.	.	.	.	.	.	.	.	.	.	.	16AA/JJ	.	.	.	.	.	.	.	.	.	.	.	.	.	.	.
*	*	*	*	*	*	*	*	*	*	*	*	*	*	*	*	*	*	*	*	*Xtremolo	*	*	*	*	*	*	*	*	*	*	*	*	*	*	*
.	4D/)	]	8D\	-my.	.	.	4d\	-my.	.	4dd\	4d\	-my.	.	4d\)	]	4dd 4d/)	]	4dd\)	]	4D\	]	4D\)	]	4dd 4f#/))	]	4d 4F#/))	]	4d 4D\))	]	4dd\))	]	4dd 4f#/))	]	4ddd\))	]
.	.	.	8r	.	.	.	.	.	.	.	.	.	.	.	.	.	.	.	.	.	.	.	.	.	.	.	.	.	.	.	.	.	.	.	.
!	!	!	!LO:TX:a:i:t=Pocztylion.:note=podkreślone	!	!	!	!	!	!	!	!	!	!	!	!	!	!	!	!	!	!	!	!	!	!	!	!	!	!	!	!	!	!	!	!
.	8r	.	8d\	Je-	.	.	8r	.	.	8r	8ryy	.	.	8r	.	8r	.	8r	.	8r	.	8r	.	8r	.	8r	.	8r	.	8r	.	8r	.	8r	.
*	*	*	*	*	*	*	*	*	*	*v	*v	*	*	*	*	*	*	*	*	*	*	*	*	*	*	*	*	*	*	*	*	*	*	*	*
=28	=28	=28	=28	=28	=28	=28	=28	=28	=28	=28	=28	=28	=28	=28	=28	=28	=28	=28	=28	=28	=28	=28	=28	=28	=28	=28	=28	=28	=28	=28	=28	=28	=28	=28
*	*	*	*	*	*	*	*	*	*	*	*	*	*	*	*	*	*	*	*	*	*	*	*	*	*	*	*	*	*^	*	*	*	*	*
2.ryy	(2.F#\	.	4d\	-cha-	.	.	2.r	.	.	2.r	.	.	8r	.	8r	.	4r	.	2.r	.	2.r	.	2.r	.	2.r	.	2.r	.	4r	2.r	.	2.r	.	2.r	.
!	!	!	!	!	!	!	!	!	!	!	!	!	!	!LO:DY:rj:t=p.	!	!LO:DY:rj:t=p.	!	!	!	!	!	!	!	!	!	!	!	!	!	!	!	!	!	!	!
.	.	.	.	.	.	.	.	.	.	.	.	.	8aL 8d\|	p	8aL 8d/|	p	.	.	.	.	.	.	.	.	.	.	.	.	.	.	.	.	.	.	.
.	.	.	8cn\	-łem	.	.	.	.	.	.	.	.	8aJ 8d\|	.	8aJ 8d/|	.	8r	.	.	.	.	.	.	.	.	.	.	.	8r	.	.	.	.	.	.
*	*	*	*	*	*	*	*	*	*	*	*	*	*tremolo	*	*tremolo	*	*	*	*	*	*	*	*	*	*	*	*	*	*	*	*	*	*	*	*
.	.	.	4B\	nie	.	.	.	.	.	.	.	.	8aL 8d\	.	8aL 8d/	.	4r	.	.	.	.	.	.	.	.	.	.	.	4r	.	.	.	.	.	.
.	.	.	.	.	.	.	.	.	.	.	.	.	8a 8d\	.	8a 8d/	.	.	.	.	.	.	.	.	.	.	.	.	.	.	.	.	.	.	.	.
!	!	!	!	!	!	!	!	!	!	!	!	!	!	!	!	!	!LO:TUP:a:problem:klamra łukowa	!LO:DY:rj	!	!	!	!	!	!	!	!	!	!	!LO:TUP:a:problem:klamra łukowa	!	!LO:DY:rj:t=p.	!	!	!	!
.	.	.	8A\	le-	.	.	.	.	.	.	.	.	8aJ 8d\	.	8aJ 8d/	.	24dd\LL	p	.	.	.	.	.	.	.	.	.	.	24dd/LL	.	p	.	.	.	.
*	*	*	*	*	*	*	*	*	*	*	*	*	*Xtremolo	*	*Xtremolo	*	*	*	*	*	*	*	*	*	*	*	*	*	*	*	*	*	*	*	*
.	.	.	.	.	.	.	.	.	.	.	.	.	.	.	.	.	24ee\	.	.	.	.	.	.	.	.	.	.	.	24ee/	.	.	.	.	.	.
.	.	.	.	.	.	.	.	.	.	.	.	.	.	.	.	.	24dd\JJ	.	.	.	.	.	.	.	.	.	.	.	24dd/JJ	.	.	.	.	.	.
!!LO:PB:g=original
=29	=29	=29	=29	=29	=29	=29	=29	=29	=29	=29	=29	=29	=29	=29	=29	=29	=29	=29	=29	=29	=29	=29	=29	=29	=29	=29	=29	=29	=29	=29	=29	=29	=29	=29	=29
!	!LO:TX:t=P:problem:brak zakończenia łuku	!	!	!	!	!	!	!	!	!	!	!	!	!	!	!	!	!	!	!	!	!	!	!	!	!	!	!	!	!	!	!	!	!	!
2.ryy	4G\)	.	4B\	-ni-	.	.	2.r	.	.	2.r	.	.	8r	.	8r	.	8bb\	.	2.r	.	2.r	.	2.r	.	2.r	.	2.r	.	8b/	2.r	.	2.r	.	2.r	.
.	.	.	.	.	.	.	.	.	.	.	.	.	8g\L	.	8bL 8d/	.	8r	.	.	.	.	.	.	.	.	.	.	.	8r	.	.	.	.	.	.
.	8r	.	8G\	-wo,	.	.	.	.	.	.	.	.	8g\J	.	8bJ 8d/	.	8aa\	.	.	.	.	.	.	.	.	.	.	.	8a/	.	.	.	.	.	.
.	4r	.	4B\	cią-	.	.	.	.	.	.	.	.	8g\L	.	8bL 8d/	.	8gg\	.	.	.	.	.	.	.	.	.	.	.	8g/	.	.	.	.	.	.
.	.	.	.	.	.	.	.	.	.	.	.	.	8g\	.	8b 8d/	.	8r	.	.	.	.	.	.	.	.	.	.	.	8r	.	.	.	.	.	.
.	8r	.	8G\	-gle	.	.	.	.	.	.	.	.	8g\J	.	8bJ 8d/	.	8ee\	.	.	.	.	.	.	.	.	.	.	.	8e/	.	.	.	.	.	.
=30	=30	=30	=30	=30	=30	=30	=30	=30	=30	=30	=30	=30	=30	=30	=30	=30	=30	=30	=30	=30	=30	=30	=30	=30	=30	=30	=30	=30	=30	=30	=30	=30	=30	=30	=30
2.ryy	(2.F#\	.	4d\	kłu-	.	.	2.r	.	.	2.r	.	.	8r	.	8r	.	[4.dd\	.	2.r	.	2.r	.	2.r	.	2.r	.	2.r	.	[<4.d/	2.r	.	2.r	.	2.r	.
.	.	.	.	.	.	.	.	.	.	.	.	.	8aL 8d\	.	8aL 8d/	.	.	.	.	.	.	.	.	.	.	.	.	.	.	.	.	.	.	.	.
!	!	!	!LO:ACC:color=grey	!	!	!	!	!	!	!	!	!	!	!	!	!	!	!	!	!	!	!	!	!	!	!	!	!	!	!	!	!	!	!	!
.	.	.	8cn\	-sem	.	.	.	.	.	.	.	.	8aJ 8d\	.	8aJ 8d/	.	.	.	.	.	.	.	.	.	.	.	.	.	.	.	.	.	.	.	.
.	.	.	4B\	lub	.	.	.	.	.	.	.	.	8aL 8d\	.	8aL 8d/	.	8dd\]	.	.	.	.	.	.	.	.	.	.	.	8d/]	.	.	.	.	.	.
.	.	.	.	.	.	.	.	.	.	.	.	.	8a 8d\	.	8a 8d/	.	8r	.	.	.	.	.	.	.	.	.	.	.	8r	.	.	.	.	.	.
.	.	.	8A\	z_ko-	.	.	.	.	.	.	.	.	8aJ 8d\	.	8aJ 8d/	.	8r	.	.	.	.	.	.	.	.	.	.	.	8r	.	.	.	.	.	.
=31	=31	=31	=31	=31	=31	=31	=31	=31	=31	=31	=31	=31	=31	=31	=31	=31	=31	=31	=31	=31	=31	=31	=31	=31	=31	=31	=31	=31	=31	=31	=31	=31	=31	=31	=31
2.ryy	8G\L)	f	4B\	-py-	.	.	2.r	.	.	2.r	.	.	8r	.	8r	.	8r	.	2.r	.	2.r	.	2.r	.	8r	.	8r	.	8r	8ryy	.	2.r	.	2.r	.
!	!	!	!	!	!	!	!	!	!	!	!	!	!	!	!	!LO:DY:rj	!	!LO:DY:rj	!	!	!	!	!	!	!	!	!	!	!	!	!	!	!	!	!
.	8D\	.	.	.	.	.	.	.	.	.	.	.	8gL 8B/	f	8bL 8d/	f	8bL 8d/	f	.	.	.	.	.	.	8gL 8d\	f	8BL 8G\	f	8b/L	8b\L	f	.	.	.	.
.	8BB\J	.	8G\	-ta,	.	.	.	.	.	.	.	.	8gJ 8B/	.	8bJ 8d/	.	8ddJ 8d/	.	.	.	.	.	.	.	8gJ 8d\	.	8BJ 8G\	.	8dd/J	8dd\J	.	.	.	.	.
.	4GG/	.	8r	.	.	.	.	.	.	.	.	.	4g 4B/	.	4b 4d/	.	4gg 4b/	.	.	.	.	.	.	.	4g 4d\	.	4B 4G\	.	4gg/	4gg\	.	.	.	.	.
.	.	.	8B\	świad-	.	.	.	.	.	.	.	.	.	.	.	.	.	.	.	.	.	.	.	.	.	.	.	.	.	.	.	.	.	.	.
!	!	!	!	!	!	!	!	!	!	!	!	!	!	!	!	!	!	!	!	!	!	!	!	!	!	!	!	!	!	!	!	!	!	!	!LO:DY:t=f.
.	8r	.	8B\	-czy	.	.	.	.	.	.	.	.	8r	.	8r	.	8r	.	.	.	.	.	.	.	8r	.	8r	.	8r	8ryy	.	.	.	.	.
!	!	!	!	!	!	!	!	!	!	!	!	!	!	!	!	!	!	!	!	!	!	!	!	!	!	!	!	!	!	!	!	!	!	!	!LO:DY:t=f.
.	.	.	.	.	.	.	.	.	.	.	.	.	.	.	.	.	.	f	.	.	.	.	.	.	.	f	.	f	.	.	f	.	f	.	f
*	*	*	*	*	*	*	*	*	*	*	*	*	*	*	*	*	*	*	*	*	*	*	*	*	*	*	*	*	*v	*v	*	*	*	*	*
=32	=32	=32	=32	=32	=32	=32	=32	=32	=32	=32	=32	=32	=32	=32	=32	=32	=32	=32	=32	=32	=32	=32	=32	=32	=32	=32	=32	=32	=32	=32	=32	=32	=32	=32
*	*^	*	*	*	*	*	*	*	*	*	*	*	*	*	*	*	*	*	*	*	*	*	*	*	*^	*	*^	*	*	*	*	*	*	*
*	*tremolo	*tremolo	*	*	*	*	*	*	*	*	*	*	*	*	*	*	*	*	*	*	*	*	*	*	*	*tremolo	*tremolo	*	*tremolo	*tremolo	*	*	*	*	*	*	*
2.ryy	16E/LL	8E\L	f	4e\	brycz-	.	.	2.r	.	.	2.r	.	.	16B/LL	ff	16b/LL	ff	4ee 4b 4g\	.	2.r	.	2.r	.	2.r	.	8e/L	8e\L	.	8G/L	8G\L	.	4gg 4b\|	.	4ee 4g\|	.	4ggg 4eee\|	.
.	16E/	.	.	.	.	.	.	.	.	.	.	.	.	16A#X/	.	16a#X/	.	.	.	.	.	.	.	.	.	.	.	.	.	.	.	.	.	.	.	.	.
.	16E/	8E\	.	.	.	.	.	.	.	.	.	.	.	16B/	.	16b/	.	.	.	.	.	.	.	.	.	8e/	8e\	.	8G/	8G\	.	.	.	.	.	.	.
.	16E/	.	.	.	.	.	.	.	.	.	.	.	.	16A#/	.	16a#/	.	.	.	.	.	.	.	.	.	.	.	.	.	.	.	.	.	.	.	.	.
.	16E/	8E\	.	8e\	-ka	.	.	.	.	.	.	.	.	16B/	.	16b/	.	8r	.	.	.	.	.	.	.	8e/J	8e\J	.	8G/J	8G\J	.	8r	.	8r	.	8r	.
.	16E/	.	.	.	.	.	.	.	.	.	.	.	.	16A#/JJ	.	16a#/JJ	.	.	.	.	.	.	.	.	.	.	.	.	.	.	.	.	.	.	.	.	.
.	16E/	8E\	.	4d#X\	to	.	.	.	.	.	.	.	.	16B/LL	.	16b/LL	.	4dd#X 4f# 4B/	.	.	.	.	.	.	.	8f#/L	8f#\L	.	8A/L	8A\L	.	4ff# 4a\|	.	4dd#X 4f#\|	.	4fff# 4ddd#X\|	.
.	16E/	.	.	.	.	.	.	.	.	.	.	.	.	16A#/	.	16a#/	.	.	.	.	.	.	.	.	.	.	.	.	.	.	.	.	.	.	.	.	.
.	16E/	8E\	.	.	.	.	.	.	.	.	.	.	.	16B/	.	16b/	.	.	.	.	.	.	.	.	.	8f#/	8f#\	.	8A/	8A\	.	.	.	.	.	.	.
.	16E/	.	.	.	.	.	.	.	.	.	.	.	.	16A#/	.	16a#/	.	.	.	.	.	.	.	.	.	.	.	.	.	.	.	.	.	.	.	.	.
.	16E/	8E\J	.	8d#\	roz-	.	.	.	.	.	.	.	.	16B/	.	16b/	.	8r	.	.	.	.	.	.	.	8f#/J	8f#\J	.	8A/J	8A\J	.	8r	.	8r	.	8r	.
.	16E/JJ	.	.	.	.	.	.	.	.	.	.	.	.	16A#/JJ	.	16a#/JJ	.	.	.	.	.	.	.	.	.	.	.	.	.	.	.	.	.	.	.	.	.
*	*Xtremolo	*Xtremolo	*	*	*	*	*	*	*	*	*	*	*	*	*	*	*	*	*	*	*	*	*	*	*	*Xtremolo	*Xtremolo	*	*Xtremolo	*Xtremolo	*	*	*	*	*	*	*
=33	=33	=33	=33	=33	=33	=33	=33	=33	=33	=33	=33	=33	=33	=33	=33	=33	=33	=33	=33	=33	=33	=33	=33	=33	=33	=33	=33	=33	=33	=33	=33	=33	=33	=33	=33	=33	=33
2.ryy	4E/	4E\	.	4e\	-bi-	.	.	2.r	.	.	2.r	.	.	16B/LL	.	16b/LL	.	4ee 4b 4g\	.	2.r	.	2.r	.	2.r	.	4e/	4e\	.	4G/	4G\	.	4ee 4g\	.	4ee 4g\	.	4eee\|	.
.	.	.	.	.	.	.	.	.	.	.	.	.	.	16An/	.	16an/	.	.	.	.	.	.	.	.	.	.	.	.	.	.	.	.	.	.	.	.	.
.	.	.	.	.	.	.	.	.	.	.	.	.	.	16G/	.	16g/	.	.	.	.	.	.	.	.	.	.	.	.	.	.	.	.	.	.	.	.	.
.	.	.	.	.	.	.	.	.	.	.	.	.	.	16F#/J	.	16f#/J	.	.	.	.	.	.	.	.	.	.	.	.	.	.	.	.	.	.	.	.	.
.	8r	8ryy	.	8B\	-ta,	.	.	.	.	.	.	.	.	8E/J	.	8e/J	.	8r	.	.	.	.	.	.	.	8r	8ryy	.	8r	8ryy	.	8r	.	8r	.	8r	.
.	4r	4ryy	.	8B\L	świad-	.	.	.	.	.	.	.	.	4r	.	4r	.	4r	.	.	.	.	.	.	.	4r	4ryy	.	4r	4ryy	.	4r	.	4r	.	4r	.
!	!	!	!	!LO:SIC:v:s=8cnJ\	!	!	!	!	!	!	!	!	!	!	!	!	!	!	!	!	!	!	!	!	!	!	!	!	!	!	!	!	!	!	!	!	!
.	.	.	.	8c#\J	.	.	.	.	.	.	.	.	.	.	.	.	.	.	.	.	.	.	.	.	.	.	.	.	.	.	.	.	.	.	.	.	.
.	8r	8ryy	.	8c#X\	-czy	.	.	.	.	.	.	.	.	8r	.	8r	.	8r	.	.	.	.	.	.	.	8r	8ryy	.	8r	8ryy	.	8r	.	8r	.	8r	.
=34	=34	=34	=34	=34	=34	=34	=34	=34	=34	=34	=34	=34	=34	=34	=34	=34	=34	=34	=34	=34	=34	=34	=34	=34	=34	=34	=34	=34	=34	=34	=34	=34	=34	=34	=34	=34	=34
*	*tremolo	*tremolo	*	*	*	*	*	*	*	*	*	*	*	*	*	*	*	*	*	*	*	*	*	*	*	*tremolo	*tremolo	*	*tremolo	*tremolo	*	*	*	*	*	*	*
2.ryy	16F#/LL	8F#\L	.	4d\	brycz-	.	.	2.r	.	.	2.r	.	.	16A/LL	.	16a/LL	.	4ff# 4a 4d/	.	2.r	.	2.r	.	2.r	.	8d/L	8d\L	.	8F#/L	8F#\L	.	4ff# 4dd\	.	4dd 4a/	.	4fff# 4ddd\	.
.	16F#/	.	.	.	.	.	.	.	.	.	.	.	.	16G#X/	.	16g#X/	.	.	.	.	.	.	.	.	.	.	.	.	.	.	.	.	.	.	.	.	.
.	16F#/	8F#\	.	.	.	.	.	.	.	.	.	.	.	16A/	.	16a/	.	.	.	.	.	.	.	.	.	8d/	8d\	.	8F#/	8F#\	.	.	.	.	.	.	.
.	16F#/	.	.	.	.	.	.	.	.	.	.	.	.	16G#/	.	16g#/	.	.	.	.	.	.	.	.	.	.	.	.	.	.	.	.	.	.	.	.	.
.	16F#/	8F#\J	.	8d\	-ka	.	.	.	.	.	.	.	.	16A/	.	16a/	.	8r	.	.	.	.	.	.	.	8d/J	8d\J	.	8F#/J	8F#\J	.	8r	.	8r	.	8r	.
.	16F#/JJ	.	.	.	.	.	.	.	.	.	.	.	.	16G#/JJ	.	16g#/JJ	.	.	.	.	.	.	.	.	.	.	.	.	.	.	.	.	.	.	.	.	.
.	16G/LL	8G\L	.	8c#\L	to	.	.	.	.	.	.	.	.	16A/LL	.	16a/LL	.	4ee 4a 4e 4c#/	.	.	.	.	.	.	.	8e/L	8e\L	.	8G/L	8G\L	.	4ee 4cc#\	.	4cc# 4a/	.	4eee 4ccc#\	.
.	16G/	.	.	.	.	.	.	.	.	.	.	.	.	16G#/	.	16g#/	.	.	.	.	.	.	.	.	.	.	.	.	.	.	.	.	.	.	.	.	.
.	16G/	8G\	.	8B\J	.	.	.	.	.	.	.	.	.	16A/	.	16a/	.	.	.	.	.	.	.	.	.	8e/	8e\	.	8G/	8G\	.	.	.	.	.	.	.
.	16G/	.	.	.	.	.	.	.	.	.	.	.	.	16G#/	.	16g#/	.	.	.	.	.	.	.	.	.	.	.	.	.	.	.	.	.	.	.	.	.
.	16G/	8G\J	.	8c#\	roz-	.	.	.	.	.	.	.	.	16A/	.	16a/	.	8r	.	.	.	.	.	.	.	8e/J	8e\J	.	8G/J	8G\J	.	8r	.	8r	.	8r	.
.	16G/JJ	.	.	.	.	.	.	.	.	.	.	.	.	16G#/JJ	.	16g#/JJ	.	.	.	.	.	.	.	.	.	.	.	.	.	.	.	.	.	.	.	.	.
*	*Xtremolo	*Xtremolo	*	*	*	*	*	*	*	*	*	*	*	*	*	*	*	*	*	*	*	*	*	*	*	*Xtremolo	*Xtremolo	*	*Xtremolo	*Xtremolo	*	*	*	*	*	*	*
!!LO:PB:g=original
=35	=35	=35	=35	=35	=35	=35	=35	=35	=35	=35	=35	=35	=35	=35	=35	=35	=35	=35	=35	=35	=35	=35	=35	=35	=35	=35	=35	=35	=35	=35	=35	=35	=35	=35	=35	=35	=35
*	*	*	*	*	*	*	*	*	*	*	*	*	*	*	*	*	*	*	*	*	*	*	*	*	*	*	*	*	*	*	*	*^	*	*	*	*	*
2.ryy	4F#/	4F#\	.	4d\	-bi-	.	.	2.r	.	.	2.r	.	.	16A/LL	.	16a/LL	.	4dd 4d/	.	2.r	.	2.r	.	2.r	.	4d/	4d\	.	4F#/	4F#\	.	4dd/	4dd\	.	4dd 4a/	.	4ddd\	.
.	.	.	.	.	.	.	.	.	.	.	.	.	.	16Gn/	.	16gn/	.	.	.	.	.	.	.	.	.	.	.	.	.	.	.	.	.	.	.	.	.	.
.	.	.	.	.	.	.	.	.	.	.	.	.	.	16F#/	.	16f#/	.	.	.	.	.	.	.	.	.	.	.	.	.	.	.	.	.	.	.	.	.	.
.	.	.	.	.	.	.	.	.	.	.	.	.	.	16E/J	.	16e/J	.	.	.	.	.	.	.	.	.	.	.	.	.	.	.	.	.	.	.	.	.	.
.	8r	8ryy	.	8A\	-ta,	.	.	.	.	.	.	.	.	8D/J	.	8d/J	.	8r	.	.	.	.	.	.	.	8r	8ryy	.	8r	8ryy	.	8r	8ryy	.	8r	.	8r	.
!	!	!	!LO:DY:rj:t=p.	!	!	!	!	!	!	!	!	!	!	!	!	!	!	!	!	!	!	!	!	!	!	!	!	!	!	!	!	!	!	!	!	!	!	!
.	(4.d\	4r	p	4A\	daj-	.	.	.	.	.	.	.	.	[4.d\	p	[4.f#/	.	(4.a/	p	.	.	.	.	.	.	4r	4ryy	.	4r	4ryy	.	4r	4ryy	.	4r	.	4r	.
.	.	8r	.	8A\	-cież,	.	.	.	.	.	.	.	.	.	.	.	.	.	.	.	.	.	.	.	.	8r	8ryy	.	8r	8ryy	.	8r	8ryy	.	8r	.	8r	.
*	*	*	*	*	*	*	*	*	*	*	*	*	*	*	*	*	*	*	*	*	*	*	*	*	*	*v	*v	*	*	*	*	*v	*v	*	*	*	*	*
*	*	*	*	*	*	*	*	*	*	*	*	*	*	*	*	*	*	*	*	*	*	*	*	*	*	*	*	*v	*v	*	*	*	*	*	*	*
=36	=36	=36	=36	=36	=36	=36	=36	=36	=36	=36	=36	=36	=36	=36	=36	=36	=36	=36	=36	=36	=36	=36	=36	=36	=36	=36	=36	=36	=36	=36	=36	=36	=36	=36	=36
2.ryy	4.B\	2.r	.	4G#X\	daj-	.	.	2.r	.	.	2.r	.	.	4.d\]	.	4.f#/]	.	2.g#X/	.	2.r	.	2.r	.	2.r	.	2.r	.	2.r	.	2.r	.	2.r	.	2.r	.
.	.	.	.	8G#\	-cie	.	.	.	.	.	.	.	.	.	.	.	.	.	.	.	.	.	.	.	.	.	.	.	.	.	.	.	.	.	.
.	4.c#\	.	.	4c#\	co	.	.	.	.	.	.	.	.	[4.c#\	.	[4.e/	.	.	.	.	.	.	.	.	.	.	.	.	.	.	.	.	.	.	.
.	.	.	.	8c#\	na	.	.	.	.	.	.	.	.	.	.	.	.	.	.	.	.	.	.	.	.	.	.	.	.	.	.	.	.	.	.
=37	=37	=37	=37	=37	=37	=37	=37	=37	=37	=37	=37	=37	=37	=37	=37	=37	=37	=37	=37	=37	=37	=37	=37	=37	=37	=37	=37	=37	=37	=37	=37	=37	=37	=37	=37
2.ryy	4.A\	2.r	.	4F#\	pi-	.	.	2.r	.	.	2.r	.	.	4.c#\]	.	4.e/]	.	2.f#/	.	2.r	.	2.r	.	2.r	.	2.r	.	2.r	.	2.r	.	2.r	.	2.r	.
.	.	.	.	8F#\	-wo	.	.	.	.	.	.	.	.	.	.	.	.	.	.	.	.	.	.	.	.	.	.	.	.	.	.	.	.	.	.
.	4.B\	.	.	4F#\	daj-	.	.	.	.	.	.	.	.	[4.B\	.	[4.d/	.	.	.	.	.	.	.	.	.	.	.	.	.	.	.	.	.	.	.
.	.	.	.	8F#\	-cie	.	.	.	.	.	.	.	.	.	.	.	.	.	.	.	.	.	.	.	.	.	.	.	.	.	.	.	.	.	.
=38	=38	=38	=38	=38	=38	=38	=38	=38	=38	=38	=38	=38	=38	=38	=38	=38	=38	=38	=38	=38	=38	=38	=38	=38	=38	=38	=38	=38	=38	=38	=38	=38	=38	=38	=38
*	*	*	*	*^	*	*	*	*	*	*	*^	*	*	*	*	*	*	*	*	*	*	*	*	*^	*	*^	*	*^	*	*^	*	*^	*	*^	*
!	!	!	!	!	!	!	!	!	!	!	!	!LO:TX:b:t=Chór.:note=podkreślone:rj	!	!	!	!	!	!	!	!	!	!	!	!	!	!	!	!	!	!	!	!	!	!	!	!	!	!	!	!	!	!	!
2.ryy	4.G\	4r	.	4E\	4r	daj-	.	.	4r	.	.	4r	4ryy	.	.	4.B\]	.	4.d/]	.	4.e/	.	2.r	.	2.r	.	4r	4ryy	.	4r	4ryy	.	4r	4ryy	.	4r	4ryy	.	4r	4ryy	.	4r	4ryy	.
.	.	8r	.	8E\	8r	-cie	.	.	8r	.	.	8r	8ryy	.	.	.	.	.	.	.	.	.	.	.	.	8r	8ryy	.	8r	8ryy	.	8r	8ryy	.	8r	8ryy	.	8r	8ryy	.	8r	8ryy	.
.	8A\)	8r	.	4A\	4r	co	.	.	4r	.	.	4r	4ryy	.	.	8A/	.	8c#/	.	8a/)	.	.	.	.	.	4r	4ryy	f	4r	4ryy	f	4r	4ryy	.	4r	4ryy	f	4r	4ryy	.	4r	4ryy	.
.	8r	8ryy	.	.	.	.	.	.	.	.	.	.	.	.	.	8r	.	8r	.	8r	.	.	.	.	.	.	.	.	.	.	.	.	.	.	.	.	.	.	.	.	.	.	.
.	8A/	8A\	f	8A/	8A\	na	ach!	.	8A\	ach!	.	8a/	8a\	ach!	.	8a\	f	8a/	f	8aa\	f	.	.	.	.	8cc#/	8a\	.	8A/	8A\	.	8A/	8A\	f	8a/	8a\	.	8a/	8a\	f	8aa/	8aa\	f
*	*	*	*	*	*	*	*	*	*	*	*	*	*	*	*	*	*	*	*	*	*	*	*	*	*	*v	*v	*	*	*	*	*v	*v	*	*v	*v	*	*v	*v	*	*v	*v	*
*	*v	*v	*	*	*	*	*	*	*	*	*	*v	*v	*	*	*	*	*	*	*	*	*	*	*	*	*	*	*v	*v	*	*	*	*	*	*	*	*	*
=39	=39	=39	=39	=39	=39	=39	=39	=39	=39	=39	=39	=39	=39	=39	=39	=39	=39	=39	=39	=39	=39	=39	=39	=39	=39	=39	=39	=39	=39	=39	=39	=39	=39	=39	=39
*	*	*	*	*	*	*	*	*	*ij	*	*	*	*	*	*	*	*	*	*	*	*	*	*	*	*	*	*	*	*	*	*	*	*	*	*
!	!	!	!	!	!	!	!	!	!	!	!	!	!	!	!	!	!	!	!	!	!	!	!	!	!	!	!	!	!	!	!	!	!	!LO:TX:a:t=Come sopra \n Φ [coda]	!
!	!	!	!	!	!	!	!	!	!	!	!	!	!	!	!	!	!	!	!	!	!	!	!	!	!	!	!	!	!	!	!	!	!	!LO:TX:a:t=Φ:rj	!
!	!	!	!	!	!	!	!	!	!	!	!	!	!	!	!	!	!	!	!	!	!	!	!	!	!	!	!	!	!	!	!	!	!	!LO:TX:a:t=Col Ob. in 8va	!
2.ryy	4D\	.	4d\	4D\	pi-	spiesʒ,	.	4d\	spiesʒ,	.	4dd\	spiesʒ,	.	4ayy 4d\yy	.	4ff#yy 4a\yy	.	4dddyy 4dd\yy	.	4D\yy	.	4D\yy	.	4ddyy 4f#/yy	.	4dyy 4F#/yy	.	4dyy 4D\yy	.	4ddyy 4f#\yy	.	4ddyy 4f#/yy	.	4dddyyyy 4ff#\yyyy	.
.	8D\	.	8d\	8D\	-wo.	ach	.	8d\	ach	.	8dd\	ach	.	8ayy 8d\yy	.	8ff#yy 8a\yy	.	8dddyy 8dd\yy	.	8D\yy	.	8D\yy	.	8ddyy 8f#/yy	.	8dyy 8F#/yy	.	8dyy 8D\yy	.	8ddyy 8f#\yy	.	8ddyy 8f#/yy	.	8dddyyyy 8ff#\yyyy	.
.	4D\	.	4d\	4r	.	.	.	4d\	spiesʒ,	.	4dd\	spiesʒ,	.	4ayy 4d\yy	.	4ff#yy 4a\yy	.	4dddyy 4dd\yy	.	4D\yy	.	4D\yy	.	4ddyy 4f#/yy	.	4dyy 4F#/yy	.	4dyy 4D\yy	.	4ddyy 4f#\yy	.	4ddyy 4f#/yy	.	4dddyyyy 4ff#\yyyy	.
.	8D\	.	8D\	8r	.	.	.	8d\	pocz-	.	8dd\	pocz-	.	8ayy 8d\yy	.	8ff#yy 8a\yy	.	8dddyy 8dd\yy	.	8D\yy	.	8D\yy	.	8ddyy 8f#/yy	.	8dyy 8F#/yy	.	8dyy 8D\yy	.	8ddyy 8f#\yy	.	8ddyy 8f#/yy	.	8dddyyyy 8ff#\yyyy	.
*	*	*	*v	*v	*	*	*	*	*	*	*	*	*	*	*	*	*	*	*	*	*	*	*	*	*	*	*	*	*	*	*	*	*	*	*
=40	=40	=40	=40	=40	=40	=40	=40	=40	=40	=40	=40	=40	=40	=40	=40	=40	=40	=40	=40	=40	=40	=40	=40	=40	=40	=40	=40	=40	=40	=40	=40	=40	=40	=40
*	*	*	*	*	*	*	*	*	*	*	*	*	*	*	*	*	*	*	*	*	*	*	*	*	*	*	*	*	*	*	*^	*	*^	*
*	*tremolo	*	*	*	*	*	*	*	*	*	*	*	*	*	*tremolo	*	*	*	*tremolo	*	*tremolo	*	*	*	*	*	*	*	*	*	*	*	*	*	*	*
2.ryy	8D\L	.	4D\	.	.	.	8d\L	-ty-	.	8dd\L	-ty-	.	8ddLyy 8d\yy	.	8ff#Lyy 8dd\yy	.	8dddLyy 8dd\yy	.	8D\Lyy	.	8D\Lyy	.	8ddLyy 8f#/yy	.	8dLyy 8F#/yy	.	8dLyy 8D\yy	.	8ddLyy 8f#\yy	.	8ddLyy 8f#/yy	8f#\Lyy	.	8dddLyy 8ff#/yy	8ff#\Lyyyy	.
.	8D\	.	.	.	.	.	8c#\J	.	.	8cc#\J	.	.	8cc#\yy	.	8ff#yy 8dd\yy	.	8ccc#\yy	.	8D\yy	.	8D\yy	.	8ff#yy 8f#/yy	.	8f#yy 8F#/yy	.	8c#yy 8D\yy	.	8cc#yy 8f#\yy	.	8cc#/yy	8cc#\yy	.	8ccc#/yy	8ccc#\yyyy	.
.	8D\J	.	8D\	.	.	.	8B\	-lio-	.	8b\	-lio-	.	8b\Jyy	.	8ff#Jyy 8dd\yy	.	8bb\Jyy	.	8D\Jyy	.	8D\Jyy	.	8ddJyy 8f#/yy	.	8dJyy 8F#/yy	.	8BJyy 8D\yy	.	8bJyy 8f#\yy	.	8b/Jyy	8b\Jyy	.	8bb/Jyy	8bb\Jyyyy	.
*	*Xtremolo	*	*	*	*	*	*	*	*	*	*	*	*	*	*Xtremolo	*	*	*	*Xtremolo	*	*Xtremolo	*	*	*	*	*	*	*	*	*	*	*	*	*	*	*
.	8D\	.	8D\	.	.	.	8A\	-nie,	.	8a\	-nie,	.	8a\yy	.	8ff#yy 8dd\yy	.	8aa\yy	.	8D\yy	.	8D\yy	.	8ayy 8f#/yy	.	8Ayy 8F#/yy	.	8Ayy 8D\yy	.	8ayy 8f#\yy	.	8a/yy	8a\yy	.	8aa/yy	8aa\yyyy	.
.	8r	.	8r	.	.	.	8r	.	.	8r	.	.	8ryy	.	8ryy	.	8ryy	.	8ryy	.	8ryy	.	8ryy	.	8ryy	.	8ryy	.	8ryy	.	8ryy	8ryyyy	.	8ryy	8ryyyyyy	.
.	8D\	.	8B\	.	.	.	8B\	ach	.	8b\	ach	.	8byy 8d\yy	.	8ddyy 8f#/yy	.	8bbyy 8dd\yy	.	8D\yy	.	8D\yy	.	8f#yy 8d/yy	.	8dyy 8F#/yy	.	8Byy 8D\yy	.	8byy 8d/yy	.	8b/yy	8b\yy	.	8bb/yy	8bb\yyyy	.
=41	=41	=41	=41	=41	=41	=41	=41	=41	=41	=41	=41	=41	=41	=41	=41	=41	=41	=41	=41	=41	=41	=41	=41	=41	=41	=41	=41	=41	=41	=41	=41	=41	=41	=41	=41	=41
2.ryy	4D\	.	4B\	.	.	.	4B\	spiesʒ	.	4b\	spiesʒ	.	4byy 4d\yy	.	4ddyy 4f#/yy	.	4bbyy 4dd\yy	.	4D\yy	.	4D\yy	.	4f#yy 4d/yy	.	4dyy 4F#/yy	.	4Byy 4D\yy	.	4byy 4d/yy	.	4b/yy	4b\yy	.	4bb/yyyy	4bb\yyyy	.
!	!	!	!	!	!	!	!	!	!	!	!	!	!	!	!	!	!	!	!	!	!	!	!	!	!LO:SIC:v:n=2:s=8F#/	!	!	!	!	!	!	!	!	!	!	!
.	8D\	.	8B\	.	.	.	8B\	ach	.	8b\	ach	.	8byy 8d\yy	.	8ddyy 8f#/yy	.	8bbyy 8dd\yy	.	8D\yy	.	8D\yy	.	8f#yy 8d/yy	.	8dyy 8G/yy	.	8Byy 8D\yy	.	8byy 8d/yy	.	8b/yy	8b\yy	.	8bb/yyyy	8bb\yyyy	.
.	4D\	.	4B\	.	.	.	4B\	spiesʒ	.	4b\	spiesʒ	.	4byy 4d\yy	.	4ddyy 4f#/yy	.	4bbyy 4dd\yy	.	4D\yy	.	4D\yy	.	4f#yy 4d/yy	.	4dyy 4F#/yy	.	4Byy 4D\yy	.	4byy 4d/yy	.	4b/yy	4b\yy	.	4bb/yyyy	4bb\yyyy	.
.	8D\	.	8D\	.	.	.	8B\	pocz-	.	8b\	pocz-	.	8byy 8d\yy	.	8ddyy 8f#/yy	.	8bbyy 8dd\yy	.	8D\yy	.	8D\yy	.	8f#yy 8d/yy	.	8dyy 8F#/yy	.	8Byy 8D\yy	.	8byy 8d/yy	.	8b/yy	8b\yy	.	8bb/yyyy	8bb\yyyy	.
!!LO:PB:g=original
=42	=42	=42	=42	=42	=42	=42	=42	=42	=42	=42	=42	=42	=42	=42	=42	=42	=42	=42	=42	=42	=42	=42	=42	=42	=42	=42	=42	=42	=42	=42	=42	=42	=42	=42	=42	=42
*	*	*	*	*	*	*	*	*	*	*	*	*	*	*	*	*	*	*	*	*	*	*	*	*	*^	*	*	*	*	*	*	*	*	*	*	*
*	*tremolo	*	*	*ij	*	*	*	*	*	*	*	*	*tremolo	*	*	*	*	*	*tremolo	*	*tremolo	*	*tremolo	*	*	*	*	*	*	*	*	*	*	*	*	*	*
2.ryy	8D\L	.	4D\	ty-	.	.	8B/L	-ty-	.	8b\L	-ty-	.	8ddLyy 8d\yy	.	8b/Lyy	.	8bb\Lyy	.	8D\Lyy	.	8D\Lyy	.	8f#Lyy 8d/yy	.	8dLyy 8F#/yy	4.ryyyy	.	8BLyy 8D\yy	.	8bLyy 8d/yy	.	8b/Lyy	8b\Lyy	.	8bb/Lyyyy	8bb\Lyyyy	.
.	8D\	.	.	.	.	.	8A/J	.	.	8a\J	.	.	8ddyy 8d\yy	.	8a/yy	.	8aa\yy	.	8D\yy	.	8D\yy	.	8f#yy 8d/yy	.	8dyy 8F#/yy	.	.	8Ayy 8D\yy	.	8ayy 8d/yy	.	8a/yy	8a\yy	.	8aa/yyyy	8aa\yyyy	.
.	8D\J	.	8D\	-lio-	.	.	8G/	-lio-	.	8g\	-lio-	.	8ddJyy 8d\yy	.	8g/Jyy	.	8gg\Jyy	.	8D\Jyy	.	8D\Jyy	.	8f#Jyy 8d/yy	.	8dJyy 8A/yy	.	.	8GJyy 8D\yy	.	8gJyy 8d/yy	.	8g/Jyy	8g\Jyy	.	8gg/Jyyyy	8gg\Jyyyy	.
*	*Xtremolo	*	*	*	*	*	*	*	*	*	*	*	*Xtremolo	*	*	*	*	*	*Xtremolo	*	*Xtremolo	*	*Xtremolo	*	*	*	*	*	*	*	*	*	*	*	*	*	*
.	4D\	.	4D\	-nie	.	.	4F#/	-nie	.	4f#/	-nie	.	8ddyy 8d\yy	.	8f#/yy	.	8ff#\yy	.	8D\yy	.	8D\yy	.	8f#yy 8d/yy	.	8d/yy	8d\yy	.	8F#yy 8D\yy	.	8f#yy 8d/yy	.	8f#/yy	8f#\yy	.	8ff#/yy	8ff#\yy	.
*	*	*	*	*Xij	*	*	*	*	*	*	*	*	*	*	*	*	*	*	*	*	*	*	*	*	*	*	*	*	*	*	*	*	*	*	*	*	*
.	.	.	.	.	.	.	.	.	.	.	.	.	8ryy	.	8ryy	.	8ryy	.	8ryy	.	8ryy	.	8ryy	.	8ryy	8ryyyy	.	8ryy	.	8ryy	.	8ryy	8ryyyy	.	8ryy	8ryyyy	.
.	8r	.	8r	.	.	.	8r	.	.	8r	.	.	8ryy	.	8ryy	.	8ryy	.	8ryy	.	8ryy	.	8ryy	.	8ryy	8ryyyy	.	8ryy	.	8ryy	.	8ryy	8ryyyy	.	8ryy	8ryyyy	.
*	*	*	*	*	*	*	*	*	*	*	*	*	*	*	*	*	*	*	*	*	*	*	*	*	*v	*v	*	*	*	*	*	*	*	*	*v	*v	*
=43	=43	=43	=43	=43	=43	=43	=43	=43	=43	=43	=43	=43	=43	=43	=43	=43	=43	=43	=43	=43	=43	=43	=43	=43	=43	=43	=43	=43	=43	=43	=43	=43	=43	=43	=43
*	*	*	*	*	*	*	*	*	*	*	*	*	*	*	*	*	*	*	*	*	*	*	*	*	*	*	*^	*	*	*	*	*	*	*	*
*	*tremolo	*	*	*	*	*	*	*	*	*	*	*	*	*	*	*	*	*	*	*	*	*	*	*	*	*	*	*	*	*	*	*	*	*	*	*
2.ryy	8D\L	.	8D\	Szczę-	.	.	2.r	.	.	2.r	.	.	8D/Lyy	.	8d/Lyy	.	2.ryy	.	2.ryy	.	2.ryy	.	2.r	.	8dLyy 8D/yy	.	8D/Lyy	8D\Lyy	.	2.ryy	.	8d/Lyy	8d\Lyy	.	2.ryy	.
.	8D\	.	8D\	-śćie	.	.	.	.	.	.	.	.	16D/Lyy	.	16d/Lyy	.	.	.	.	.	.	.	.	.	16dLyy 16D/yy	.	16D/Lyy	16D\Lyy	.	.	.	16d/Lyy	16d\Lyy	.	.	.
.	.	.	.	.	.	.	.	.	.	.	.	.	16D/Jyy	.	16d/Jyy	.	.	.	.	.	.	.	.	.	16dJyy 16D/yy	.	16D/Jyy	16D\Jyy	.	.	.	16d/Jyy	16d\Jyy	.	.	.
.	8D\J	.	8D\	nam	.	.	.	.	.	.	.	.	8D/Jyy	.	8d/Jyy	.	.	.	.	.	.	.	.	.	8dJyy 8D/yy	.	8D/Jyy	8D\Jyy	.	.	.	8d/Jyy	8d\Jyy	.	.	.
*	*Xtremolo	*	*	*	*	*	*	*	*	*	*	*	*	*	*tremolo	*	*	*	*	*	*	*	*	*	*	*	*	*	*	*	*	*	*	*	*	*
.	8F#\L	.	8F#\	nio-	.	.	.	.	.	.	.	.	8F#/Lyy	.	16f#/LLyy	.	.	.	.	.	.	.	.	.	8f#Lyy 8F#/yy	.	8F#/Lyy	8F#\Lyy	.	.	.	8f#/Lyy	8f#\Lyy	.	.	.
.	.	.	.	.	.	.	.	.	.	.	.	.	.	.	16f#/yy	.	.	.	.	.	.	.	.	.	.	.	.	.	.	.	.	.	.	.	.	.
.	8D\	.	8D\	-są	.	.	.	.	.	.	.	.	8D/yy	.	16d/yy	.	.	.	.	.	.	.	.	.	8dyy 8D/yy	.	8D/yy	8D\yy	.	.	.	8d/yy	8d\yy	.	.	.
.	.	.	.	.	.	.	.	.	.	.	.	.	.	.	16d/yy	.	.	.	.	.	.	.	.	.	.	.	.	.	.	.	.	.	.	.	.	.
.	8F#\J	.	8F#\	twe	.	.	.	.	.	.	.	.	8F#/Jyy	.	16f#/yy	.	.	.	.	.	.	.	.	.	8f#Jyy 8F#/yy	.	8F#/Jyy	8F#\Jyy	.	.	.	8f#/Jyy	8f#\Jyy	.	.	.
.	.	.	.	.	.	.	.	.	.	.	.	.	.	.	16f#/JJyy	.	.	.	.	.	.	.	.	.	.	.	.	.	.	.	.	.	.	.	.	.
*	*	*	*	*	*	*	*	*	*	*	*	*	*	*	*Xtremolo	*	*	*	*	*	*	*	*	*	*	*	*	*	*	*	*	*	*	*	*	*
*	*	*	*	*	*	*	*	*	*	*	*	*	*	*	*	*	*	*	*	*	*	*	*	*	*	*	*v	*v	*	*	*	*	*	*	*	*
=44	=44	=44	=44	=44	=44	=44	=44	=44	=44	=44	=44	=44	=44	=44	=44	=44	=44	=44	=44	=44	=44	=44	=44	=44	=44	=44	=44	=44	=44	=44	=44	=44	=44	=44	=44
*	*	*	*	*	*	*	*	*	*	*	*	*	*	*	*	*	*	*	*	*	*	*	*^	*	*	*	*	*	*	*	*	*	*	*^	*
*	*tremolo	*	*	*	*	*	*	*	*	*	*	*	*	*	*	*	*tremolo	*	*tremolo	*	*	*	*	*	*	*tremolo	*	*tremolo	*	*	*	*	*	*	*	*	*
2.ryy	8A\L	.	4.A\	dło-	.	.	8A\	szczę-	.	8a\	szczę-	.	16A\LLyy	.	16a\LLyy	.	16eeLLyy 16a\yy	.	16AA/LLyy	.	4A\yy	.	8a/Lyy	8a\Lyy	.	8eLyy 8A\yy	.	8ALyy 8AA/yy	.	8eeLyy 8cc#\yy	.	8a/yy	8a\yy	.	8aa/Lyy	8aa\Lyy	.
.	.	.	.	.	.	.	.	.	.	.	.	.	16e\yy	.	16cc#\yy	.	16eeyy 16a\yy	.	16AA/yy	.	.	.	.	.	.	.	.	.	.	.	.	.	.	.	.	.	.
.	8A\	.	.	.	.	.	8A\	-śćie	.	8a\	-śćie	.	16e\yy	.	16cc#\yy	.	16eeyy 16a\yy	.	16AA/yy	.	.	.	16a/Lyy	16a\Lyy	.	8eyy 8A\yy	.	8Ayy 8AA/yy	.	16eeLyy 16cc#\yy	.	16cc#LLyy 16e/yy	8ryyyy	.	16aa/Lyy	16aa\Lyy	.
.	.	.	.	.	.	.	.	.	.	.	.	.	16e\yy	.	16cc#\yy	.	16eeyy 16a\yy	.	16AA/yy	.	.	.	16a/Jyy	16a\Jyy	.	.	.	.	.	16eeJyy 16cc#\yy	.	16cc#Jyy 16e/yy	.	.	16aa/Jyy	16aa\Jyy	.
.	8A\	.	.	.	.	.	8A\	nam	.	8a\	nam	.	16e\yy	.	16cc#\yy	.	16eeyy 16a\yy	.	16AA/yy	.	8A\yy	.	8a/Jyy	8a\Jyy	.	8eJyy 8A\yy	.	8Ayy 8AA/yy	.	8eeJyy 8cc#\yy	.	8cc#Jyy 8e/yy	8ryyyy	.	8aa/Jyy	8aa\Jyy	.
.	.	.	.	.	.	.	.	.	.	.	.	.	16e\JJyy	.	16cc#\JJyy	.	16eeJJyy 16a\yy	.	16AA/yy	.	.	.	.	.	.	.	.	.	.	.	.	.	.	.	.	.	.
*	*	*	*	*	*	*	*	*	*	*	*	*	*	*	*	*	*Xtremolo	*	*	*	*tremolo	*	*tremolo	*tremolo	*	*Xtremolo	*	*	*	*	*	*	*	*	*	*	*
.	8A\	.	4AA/	-nie	.	.	8A\	nio-	.	8a\	nio-	.	8e\Lyy	.	8cc#\Lyy	.	8eeLyy 8a\yy	.	16AA/yy	.	8A\Lyy	.	8a/Lyy	8a\Lyy	.	8eLyy 8A\yy	.	8Ayy 8AA/yy	.	8eeLyy 8cc#\yy	.	8cc#Lyy 8e/yy	4ryyyy	.	8aa/Lyy	8aa\Lyy	.
.	.	.	.	.	.	.	.	.	.	.	.	.	.	.	.	.	.	.	16AA/yy	.	.	.	.	.	.	.	.	.	.	.	.	.	.	.	.	.	.
.	8A\	.	.	.	.	.	8A\	-są	.	8a\	-są	.	8f#\yy	.	8dd\yy	.	8ff#yy 8a\yy	.	16AA/yy	.	8A\yy	.	8a/yy	8a\yy	.	8dyy 8F#\yy	.	8Ayy 8AA/yy	.	8ff#yy 8dd\yy	.	8ddyy 8f#/yy	.	.	8aa/yy	8aa\yy	.
.	.	.	.	.	.	.	.	.	.	.	.	.	.	.	.	.	.	.	16AA/yy	.	.	.	.	.	.	.	.	.	.	.	.	.	.	.	.	.	.
.	8A\J	.	8r	.	.	.	8A\	twe	.	8a\	twe	.	8e\Jyy	.	8ee\Jyy	.	8ggJyy 8a\yy	.	16AA/yy	.	8A\Jyy	.	8a/Jyy	8a\Jyy	.	8eJyy 8A\yy	.	8AJyy 8AA/yy	.	8ggJyy 8ee\yy	.	8eeJyy 8g/yy	8ryyyy	.	8aa/Jyy	8aa\Jyy	.
.	.	.	.	.	.	.	.	.	.	.	.	.	.	.	.	.	.	.	16AA/JJyy	.	.	.	.	.	.	.	.	.	.	.	.	.	.	.	.	.	.
*	*	*	*	*	*	*	*	*	*	*	*	*	*	*	*	*	*	*	*Xtremolo	*	*Xtremolo	*	*Xtremolo	*Xtremolo	*	*	*	*Xtremolo	*	*	*	*	*	*	*	*	*
*	*	*	*	*	*	*	*	*	*	*	*	*	*	*	*	*	*	*	*	*	*	*	*v	*v	*	*	*	*	*	*	*	*	*	*	*v	*v	*
=45	=45	=45	=45	=45	=45	=45	=45	=45	=45	=45	=45	=45	=45	=45	=45	=45	=45	=45	=45	=45	=45	=45	=45	=45	=45	=45	=45	=45	=45	=45	=45	=45	=45	=45	=45
*	*	*	*	*	*	*	*	*	*	*	*	*	*	*	*	*	*	*	*	*	*	*	*	*	*	*	*^	*	*	*	*	*	*	*	*
2.ryy	8D\L	.	8D\	już	.	.	4.f#^^\	dło-	.	4.dd\	dło-	.	8d\yy	.	8dd\yy	.	8ff#yy 8a\yy	.	8D\yy	.	8D\yy	.	8ff#yy 8dd\yy	.	8dLyy 8F#/yy	.	8D/Lyyy	8D\Lyy	.	8ff#yy 8dd\yy	.	8ddyy 8f#/yy	8ryyyy	.	8fff#yy 8ddd\yy	.
.	8D\	.	8D\	Cię	.	.	.	.	.	.	.	.	16D/LLyy	.	16d/LLyy	.	16d/LLyy	.	8ryy	.	8ryy	.	8ryy	.	16dLyy 16D/yy	.	8D/yy	8D\yy	.	8ryy	.	16d/LLyy	16d\LLyy	.	8ryy	.
.	.	.	.	.	.	.	.	.	.	.	.	.	16D/Jyy	.	16d/Jyy	.	16d/Jyy	.	.	.	.	.	.	.	16dJyy 16D/yy	.	.	.	.	.	.	16d/Jyy	16d\Jyy	.	.	.
.	8D\J	.	8D\	od	.	.	.	.	.	.	.	.	8D/Jyy	.	8d/Jyy	.	8d/Jyy	.	8ryy	.	8ryy	.	8ryy	.	8dJyy 8D/yy	.	8D/Jyy	8D\Jyy	.	8ryy	.	8d/Jyy	8d\Jyy	.	8ryy	.
*	*Xtremolo	*	*	*	*	*	*	*	*	*	*	*	*tremolo	*	*tremolo	*	*tremolo	*	*	*	*	*	*	*	*	*	*	*	*	*	*	*	*	*	*	*
.	8F#\L	.	8F#\	ra-	.	.	4d\	-nie,	.	4a\	-nie,	.	16F#/LLyy	.	16f#/LLyy	.	16f#/LLyy	.	4ryy	.	4ryy	.	4ryy	.	8f#Lyy 8F#/yy	.	8F#/Lyy	8F#\Lyy	.	4ryy	.	8f#/Lyy	8f#\Lyy	.	4ryy	.
*	*	*	*	*	*	*	*	*Xij	*	*	*	*	*	*	*	*	*	*	*	*	*	*	*	*	*	*	*	*	*	*	*	*	*	*	*	*
.	.	.	.	.	.	.	.	.	.	.	.	.	16F#/yy	.	16f#/yy	.	16f#/yy	.	.	.	.	.	.	.	.	.	.	.	.	.	.	.	.	.	.	.
.	8D\	.	8D\	-na	.	.	.	.	.	.	.	.	16D/yy	.	16d/yy	.	16d/yy	.	.	.	.	.	.	.	8dyy 8D/yy	.	8D/yy	8D\yy	.	.	.	8d/yy	8d\yy	.	.	.
.	.	.	.	.	.	.	.	.	.	.	.	.	16D/yy	.	16d/yy	.	16d/yy	.	.	.	.	.	.	.	.	.	.	.	.	.	.	.	.	.	.	.
.	8F#\J	.	8F#\	cze-	.	.	8r	.	.	8r	.	.	16F#/yy	.	16f#/yy	.	16f#/yy	.	8ryy	.	8ryy	.	8ryy	.	8f#Jyy 8F#/yy	.	8F#/Jyy	8F#\Jyy	.	8ryy	.	8f#/Jyy	8f#\Jyy	.	8ryy	.
.	.	.	.	.	.	.	.	.	.	.	.	.	16F#/JJyy	.	16f#/JJyy	.	16f#/JJyy	.	.	.	.	.	.	.	.	.	.	.	.	.	.	.	.	.	.	.
*	*	*	*	*	*	*	*	*	*	*	*	*	*Xtremolo	*	*Xtremolo	*	*	*	*	*	*	*	*	*	*	*	*	*	*	*	*	*	*	*	*	*
*	*	*	*	*	*	*	*	*	*	*	*	*	*	*	*	*	*	*	*	*	*	*	*	*	*	*	*v	*v	*	*	*	*	*	*	*	*
=46	=46	=46	=46	=46	=46	=46	=46	=46	=46	=46	=46	=46	=46	=46	=46	=46	=46	=46	=46	=46	=46	=46	=46	=46	=46	=46	=46	=46	=46	=46	=46	=46	=46	=46	=46
*	*	*	*	*	*	*	*	*	*	*	*	*	*	*	*	*	*	*	*tremolo	*	*	*	*	*	*tremolo	*	*tremolo	*	*	*	*	*	*	*	*
!	!LO:TX:t=P:problem:mixed beam	!	!	!	!	!	!	!	!	!	!	!	!	!	!	!	!	!	!	!	!	!	!	!	!	!	!	!	!	!	!	!	!	!	!
2.ryy	8A\L	.	4.A\	-ka-	.	.	8A\	już	.	8a\	już	.	16A\LLyy	.	16a\LLyy	.	16eeLLyy 16a\yy	.	16AA/LLyy	.	4A\yy	.	8eeLyy 8a\yy	.	8eLyy 8A\yy	.	8ALyy 8AA/yy	.	8eeLyy 8cc#\yy	.	8a/yy	8a\yy	.	8eeeLyy 8ccc#\yy	.
.	.	.	.	.	.	.	.	.	.	.	.	.	16e\yy	.	16cc#\yy	.	16eeyy 16a\yy	.	16AA/yy	.	.	.	.	.	.	.	.	.	.	.	.	.	.	.	.
.	8AA/	.	.	.	.	.	8A\	cię	.	8a\	cię	.	16e\yy	.	16cc#\yy	.	16eeyy 16a\yy	.	16AA/yy	.	.	.	16eeLyy 16a\yy	.	8eyy 8A\yy	.	8Ayy 8AA/yy	.	16eeLyy 16cc#\yy	.	16cc#LLyy 16e/yy	8ryyyy	.	16eeeLyy 16ccc#\yy	.
.	.	.	.	.	.	.	.	.	.	.	.	.	16e\yy	.	16cc#\yy	.	16eeyy 16a\yy	.	16AA/yy	.	.	.	16eeJyy 16a\yy	.	.	.	.	.	16eeJyy 16cc#\yy	.	16cc#Jyy 16e/yy	.	.	16eeeJyy 16ccc#\yy	.
.	8AA/J	.	.	.	.	.	8A\	cze-	.	8a\	od	.	16e\yy	.	16cc#\yy	.	16eeyy 16a\yy	.	16AA/yy	.	8A\yy	.	8eeJyy 8a\yy	.	8eJyy 8A\yy	.	8Ayy 8AA/yy	.	8eeJyy 8cc#\yy	.	8cc#Jyy 8e/yy	8ryyyy	.	8eeeJyy 8ccc#\yy	.
.	.	.	.	.	.	.	.	.	.	.	.	.	16e\JJyy	.	16cc#\JJyy	.	16eeJJyy 16a\yy	.	16AA/yy	.	.	.	.	.	.	.	.	.	.	.	.	.	.	.	.
*	*tremolo	*	*	*	*	*	*	*	*	*	*	*	*	*	*tremolo	*	*	*	*	*	*tremolo	*	*	*	*Xtremolo	*	*	*	*	*	*	*	*	*	*
.	8AA/L	.	4AA/	-my	.	.	8A\	-ka-	.	8a\	ra-	.	8e\Lyy	.	16cc#\LLyy	.	16eeLLyy 16a\yy	.	16AA/yy	.	8A\Lyy	.	8eeLyy 8a\yy	.	8eLyy 8A\yy	.	8Ayy 8AA/yy	.	8eeLyy 8cc#\yy	.	8cc#Lyy 8e/yy	4ryyyy	.	8eeeLyy 8ccc#\yy	.
.	.	.	.	.	.	.	.	.	.	.	.	.	.	.	16cc#\yy	.	16eeyy 16a\yy	.	16AA/yy	.	.	.	.	.	.	.	.	.	.	.	.	.	.	.	.
.	8AA/	.	.	.	.	.	8A\	-my,	.	8a\	-na	.	8d\yy	.	16dd\yy	.	16ff#yy 16a\yy	.	16AA/yy	.	8A\yy	.	8ddyy 8f#\yy	.	8f#yy 8d\yy	.	8Ayy 8AA/yy	.	8ff#yy 8dd\yy	.	8ddyy 8f#/yy	.	.	8fff#yy 8ddd\yy	.
.	.	.	.	.	.	.	.	.	.	.	.	.	.	.	16dd\yy	.	16ff#yy 16a\yy	.	16AA/yy	.	.	.	.	.	.	.	.	.	.	.	.	.	.	.	.
*	*	*	*	*	*	*	*	*	*	*	*	*	*	*	*Xtremolo	*	*	*	*	*	*	*	*	*	*	*	*	*	*	*	*	*	*	*	*
.	8AA/J	.	8r	.	.	.	8A\	o	.	8a\	cze-	.	8e\Jyy	.	8ee\JJ|yy	.	16ggyy 16a\yy	.	16AA/yy	.	8A\Jyy	.	8eeJyy 8a\yy	.	8gJyy 8e\yy	.	8AJyy 8AA/yy	.	8ggJyy 8ee\yy	.	8eeJyy 8g/yy	8ryyyy	.	8gggJyy 8eee\yy	.
.	.	.	.	.	.	.	.	.	.	.	.	.	.	.	.	.	16ggJJyy 16a\yy	.	16AA/JJyy	.	.	.	.	.	.	.	.	.	.	.	.	.	.	.	.
*	*Xtremolo	*	*	*	*	*	*	*	*	*	*	*	*	*	*	*	*	*	*Xtremolo	*	*Xtremolo	*	*	*	*	*	*Xtremolo	*	*	*	*	*	*	*	*
*	*	*	*	*	*	*	*	*	*	*	*	*	*	*	*	*	*	*	*	*	*	*	*	*	*	*	*	*	*	*	*v	*v	*	*	*
=47	=47	=47	=47	=47	=47	=47	=47	=47	=47	=47	=47	=47	=47	=47	=47	=47	=47	=47	=47	=47	=47	=47	=47	=47	=47	=47	=47	=47	=47	=47	=47	=47	=47	=47
*	*	*	*	*	*	*	*	*	*	*	*	*	*	*	*	*	*	*	*	*	*	*	*	*	*	*	*^	*	*	*	*	*	*	*
*	*	*	*	*	*	*	*	*	*	*	*	*	*	*	*tremolo	*	*	*	*	*	*	*	*	*	*	*	*	*	*	*	*	*	*	*	*
2.ryy	4D\	.	4.d^^\	spiesz!	.	.	4.f# 4.d^^\	spiesz!	.	4dd\	-ka-	.	4d\yy	.	16ddLLyy 16f#/yy	.	16ff#LLyy 16dd\yy	.	4D\yy	.	4D\yy	.	4ddyy 4f#/yy	.	2.f#yy 2.d^^\yy	.	4dyy 4D\yy	4ryyyy	.	[y2.ff#yy [y>2.dd\yy	.	[y2.ddyy [y2.f#/yy	.	[y2.fff#yy [y>2.ddd\yy	.
.	.	.	.	.	.	.	.	.	.	.	.	.	.	.	16ddyy 16f#/yy	.	16ff#yy 16dd\yy	.	.	.	.	.	.	.	.	.	.	.	.	.	.	.	.	.	.
.	.	.	.	.	.	.	.	.	.	.	.	.	.	.	16ddyy 16f#/yy	.	16ff#yy 16dd\yy	.	.	.	.	.	.	.	.	.	.	.	.	.	.	.	.	.	.
.	.	.	.	.	.	.	.	.	.	.	.	.	.	.	16ddyy 16f#/yy	.	16ff#yy 16dd\yy	.	.	.	.	.	.	.	.	.	.	.	.	.	.	.	.	.	.
.	8d\	.	.	.	.	.	.	.	.	8a\	-my,	.	8d\yy	.	16ddyy 16f#/yy	.	16ff#yy 16dd\yy	.	8ryy	.	8ryy	.	8ryy	.	.	.	8d/yy	8d\yy	.	.	.	.	.	.	.
.	.	.	.	.	.	.	.	.	.	.	.	.	.	.	16ddyy 16f#/yy	.	16ff#yy 16dd\yy	.	.	.	.	.	.	.	.	.	.	.	.	.	.	.	.	.	.
.	4d\	.	4r	.	.	.	4r	.	.	4.ff# 4.dd^^\	spiesʒ!	.	4d\yy	.	16ddyy 16f#/yy	.	16ff#yy 16dd\yy	.	4ryy	.	4.d^^\yy	.	[y4.ff#yy [y>4.dd^^\yy	.	.	.	4d/yy	4d\yy	.	.	.	.	.	.	.
.	.	.	.	.	.	.	.	.	.	.	.	.	.	.	16ddyy 16f#/yy	.	16ff#yy 16dd\yy	.	.	.	.	.	.	.	.	.	.	.	.	.	.	.	.	.	.
.	.	.	.	.	.	.	.	.	.	.	.	.	.	.	16ddyy 16f#/yy	.	16ff#yy 16dd\yy	.	.	.	.	.	.	.	.	.	.	.	.	.	.	.	.	.	.
.	.	.	.	.	.	.	.	.	.	.	.	.	.	.	16ddyy 16f#/yy	.	16ff#yy 16dd\yy	.	.	.	.	.	.	.	.	.	.	.	.	.	.	.	.	.	.
.	8d\	.	8d\	ach	.	.	8r	.	.	.	.	.	8d\yy	.	16ddyy 16f#/yy	.	16ff#yy 16dd\yy	.	8ryy	.	.	.	.	.	.	.	8d/yy	8d\yy	.	.	.	.	.	.	.
.	.	.	.	.	.	.	.	.	.	.	.	.	.	.	16ddJJyy 16f#/yy	.	16ff#JJyy 16dd\yy	.	.	.	.	.	.	.	.	.	.	.	.	.	.	.	.	.	.
=48	=48	=48	=48	=48	=48	=48	=48	=48	=48	=48	=48	=48	=48	=48	=48	=48	=48	=48	=48	=48	=48	=48	=48	=48	=48	=48	=48	=48	=48	=48	=48	=48	=48	=48	=48
*	*	*	*	*	*	*	*	*	*	*	*	*	*	*	*	*	*	*	*tremolo	*	*	*	*	*	*	*	*	*	*	*	*	*	*	*	*
2.ryy	8c#\L	.	8c#\L	spiesʒ	.	.	4.f# 4.d^^\	spiesz!	.	4r	.	.	8c#/Lyy	.	16ddLLyy 16f#/yy	.	16ff#LLyy 16dd\yy	.	8D\Lyy	.	8c#\Lyy	.	4ff#]yy 4dd\]yy	.	2.f#yy 2.d^^\yy	.	8c#/Lyy	8c#\Lyy	.	2.ff#_yy 2.dd\_>yy	.	2.dd_yy 2.f#/_yy	.	2.fff#_yy 2.ddd\_>yy	.
.	.	.	.	.	.	.	.	.	.	.	.	.	.	.	16ddyy 16f#/yy	.	16ff#yy 16dd\yy	.	.	.	.	.	.	.	.	.	.	.	.	.	.	.	.	.	.
.	8B\	.	8B\J	.	.	.	.	.	.	.	.	.	8B/yy	.	16ddyy 16f#/yy	.	16ff#yy 16dd\yy	.	8D\yy	.	8B\yy	.	.	.	.	.	8B/yy	8B\yy	.	.	.	.	.	.	.
.	.	.	.	.	.	.	.	.	.	.	.	.	.	.	16ddyy 16f#/yy	.	16ff#yy 16dd\yy	.	.	.	.	.	.	.	.	.	.	.	.	.	.	.	.	.	.
.	8A#X\J	.	8A#X\	się,	.	.	.	.	.	8r	.	.	8A#X/Jyy	.	16ddyy 16f#/yy	.	16ff#yy 16dd\yy	.	8D\Jyy	.	8A#X\Jyy	.	8ryy	.	.	.	8A#X/Jyy	8A#\Jyy	.	.	.	.	.	.	.
.	.	.	.	.	.	.	.	.	.	.	.	.	.	.	16ddyy 16f#/yy	.	16ff#yy 16dd\yy	.	.	.	.	.	.	.	.	.	.	.	.	.	.	.	.	.	.
*	*	*	*	*	*	*	*	*	*	*	*	*	*	*	*	*	*	*	*Xtremolo	*	*	*	*	*	*	*	*	*	*	*	*	*	*	*	*
.	4B\	.	4B\	spiesz!	.	.	4r	.	.	4.ff# 4.dd^^\	spiesʒ!	.	4B/yy	.	16ddyy 16f#/yy	.	16ff#yy 16dd\yy	.	4D\yy	.	4B\yy	.	[y4.ff#yy [y>4.dd^^\yy	.	.	.	4B/yy	4B\yy	.	.	.	.	.	.	.
.	.	.	.	.	.	.	.	.	.	.	.	.	.	.	16ddyy 16f#/yy	.	16ff#yy 16dd\yy	.	.	.	.	.	.	.	.	.	.	.	.	.	.	.	.	.	.
.	.	.	.	.	.	.	.	.	.	.	.	.	.	.	16ddyy 16f#/yy	.	16ff#yy 16dd\yy	.	.	.	.	.	.	.	.	.	.	.	.	.	.	.	.	.	.
.	.	.	.	.	.	.	.	.	.	.	.	.	.	.	16ddyy 16f#/yy	.	16ff#yy 16dd\yy	.	.	.	.	.	.	.	.	.	.	.	.	.	.	.	.	.	.
.	8BB/	.	8r	.	.	.	8r	.	.	.	.	.	8ryy	.	16ddyy 16f#/yy	.	16ff#yy 16dd\yy	.	8ryy	.	8ryy	.	.	.	.	.	8ryy	8ryyyy	.	.	.	.	.	.	.
.	.	.	.	.	.	.	.	.	.	.	.	.	.	.	16ddJJyy 16f#/yy	.	16ff#JJyy 16dd\yy	.	.	.	.	.	.	.	.	.	.	.	.	.	.	.	.	.	.
!!LO:PB:g=original
=49	=49	=49	=49	=49	=49	=49	=49	=49	=49	=49	=49	=49	=49	=49	=49	=49	=49	=49	=49	=49	=49	=49	=49	=49	=49	=49	=49	=49	=49	=49	=49	=49	=49	=49	=49
!	!	!	!	!	!	!	!	!	!	!	!	!	!	!	!	!	!	!	!	!	!	!	!	!	!LO:TX:t=P:problem:brak początku ligatur	!	!	!	!	!	!	!	!	!	!
2.ryy	4BB/	.	4.B^^\	spiesʒ	.	.	4.f# 4.d^^\	spiesʒ!	.	4r	.	.	4B/yy	.	16ddLLyy 16f#/yy	.	16ff#LLyy 16dd\yy	.	4D\yy	.	4BB/yy	.	4ff#]yy 4dd\]yy	.	[y2.f#yy [y2.d^^\yy	.	4BB/yy	4BB\yy	.	2.ff#_yy 2.dd\_>yy	.	2.dd_yy 2.f#/_yy	.	2.fff#_yy 2.ddd\_>yy	.
.	.	.	.	.	.	.	.	.	.	.	.	.	.	.	16ddyy 16f#/yy	.	16ff#yy 16dd\yy	.	.	.	.	.	.	.	.	.	.	.	.	.	.	.	.	.	.
.	.	.	.	.	.	.	.	.	.	.	.	.	.	.	16ddyy 16f#/yy	.	16ff#yy 16dd\yy	.	.	.	.	.	.	.	.	.	.	.	.	.	.	.	.	.	.
.	.	.	.	.	.	.	.	.	.	.	.	.	.	.	16ddyy 16f#/yy	.	16ff#yy 16dd\yy	.	.	.	.	.	.	.	.	.	.	.	.	.	.	.	.	.	.
.	8B\	.	.	.	.	.	.	.	.	8r	.	.	8B/yy	.	16ddyy 16f#/yy	.	16ff#yy 16dd\yy	.	8ryy	.	8ryy	.	8ryy	.	.	.	8B/yy	8B\yy	.	.	.	.	.	.	.
.	.	.	.	.	.	.	.	.	.	.	.	.	.	.	16ddyy 16f#/yy	.	16ff#yy 16dd\yy	.	.	.	.	.	.	.	.	.	.	.	.	.	.	.	.	.	.
.	4B\	.	4r	.	.	.	4r	.	.	4.ff# 4.dd^^\	spiesz!	.	4B/yy	.	16ddyy 16f#/yy	.	16ff#yy 16dd\yy	.	4ryy	.	4.B^^\yy	.	[y4.ff#yy [y4.dd^^\yy	.	.	.	4B/yy	4B\yy	.	.	.	.	.	.	.
.	.	.	.	.	.	.	.	.	.	.	.	.	.	.	16ddyy 16f#/yy	.	16ff#yy 16dd\yy	.	.	.	.	.	.	.	.	.	.	.	.	.	.	.	.	.	.
.	.	.	.	.	.	.	.	.	.	.	.	.	.	.	16ddyy 16f#/yy	.	16ff#yy 16dd\yy	.	.	.	.	.	.	.	.	.	.	.	.	.	.	.	.	.	.
.	.	.	.	.	.	.	.	.	.	.	.	.	.	.	16ddyy 16f#/yy	.	16ff#yy 16dd\yy	.	.	.	.	.	.	.	.	.	.	.	.	.	.	.	.	.	.
.	8B\	.	8B\	ach	.	.	8r	.	.	.	.	.	8B/yy	.	16ddyy 16f#/yy	.	16ff#yy 16dd\yy	.	8ryy	.	.	.	.	.	.	.	8B/yy	8B\yy	.	.	.	.	.	.	.
.	.	.	.	.	.	.	.	.	.	.	.	.	.	.	16ddJJyy 16f#/yy	.	16ff#JJyy 16dd\yy	.	.	.	.	.	.	.	.	.	.	.	.	.	.	.	.	.	.
=50	=50	=50	=50	=50	=50	=50	=50	=50	=50	=50	=50	=50	=50	=50	=50	=50	=50	=50	=50	=50	=50	=50	=50	=50	=50	=50	=50	=50	=50	=50	=50	=50	=50	=50	=50
*	*	*	*	*	*	*	*	*	*	*	*	*	*	*	*	*	*	*	*	*	*	*	*	*	*^	*	*	*	*	*^	*	*^	*	*	*
*	*	*	*	*	*	*	*	*	*	*	*	*	*	*	*	*	*	*	*tremolo	*	*	*	*	*	*	*	*	*	*	*	*	*	*	*	*	*	*	*
!	!	!	!	!	!	!	!	!	!	!	!	!	!	!	!	!	!	!	!	!	!	!	!LO:TX:t=P:problem:koniec ligatury na dole	!	!	!	!	!	!	!	!LO:TX:t=P:problem:koniec ligatury na dole	!	!	!	!	!	!LO:TX:t=P:problem:brak zakończenia dolnej ligatury	!
2.ryy	8A\L	.	8A\L	spiesʒ	.	.	4.f# 4.d^^\	spiesʒ	.	4r	.	.	8a\Lyy	.	16ddLLyy 16f#/yy	.	16ff#LLyy 16dd\yy	.	8D\Lyy	.	8A\Lyy	.	4ff#]yy 4dd\]yy	.	4.f#^^/]yy	4.d\]yy	.	8ALyy 8AA\yy	4.ryyyy	.	4.ff#]yy 4.dd\]yy	4.ryy	.	4.dd/]yy	8f#\L]yy	.	4.fff#]yy 4.ddd\]yy	.
.	.	.	.	.	.	.	.	.	.	.	.	.	.	.	16ddyy 16f#/yy	.	16ff#yy 16dd\yy	.	.	.	.	.	.	.	.	.	.	.	.	.	.	.	.	.	.	.	.	.
.	8G\	.	8G\J	.	.	.	.	.	.	.	.	.	8g\yy	.	16ddyy 16f#/yy	.	16ff#yy 16dd\yy	.	8D\yy	.	8G\yy	.	.	.	.	.	.	8Gyy 8GG\yy	.	.	.	.	.	.	8a\yy	.	.	.
.	.	.	.	.	.	.	.	.	.	.	.	.	.	.	16ddyy 16f#/yy	.	16ff#yy 16dd\yy	.	.	.	.	.	.	.	.	.	.	.	.	.	.	.	.	.	.	.	.	.
.	8F#\J	.	8F#\	się,	.	.	.	.	.	8r	.	.	8f#\Jyy	.	16ddyy 16f#/yy	.	16ff#yy 16dd\yy	.	8D\Jyy	.	8F#\Jyy	.	8ryy	.	.	.	.	8F#Jyy 8FF#\yy	.	.	.	.	.	.	8dd\Jyy	.	.	.
.	.	.	.	.	.	.	.	.	.	.	.	.	.	.	16ddJJyy 16f#/yy	.	16ff#JJyy 16dd\yy	.	.	.	.	.	.	.	.	.	.	.	.	.	.	.	.	.	.	.	.	.
*	*	*	*	*	*	*	*	*	*	*	*	*	*tremolo	*	*	*	*	*	*Xtremolo	*	*	*	*	*	*	*	*	*	*	*	*	*	*	*	*	*	*	*
.	8F#\L	.	8F#\L	spiesʒ,	.	.	4r	.	.	8ff#L 8f#\	spiesz	.	16f#\LLyy	.	16ff#\LLyy	.	16ff#\LLyy	.	4D\yy	.	8F#\Lyy	.	4ryy	.	8f#/Lyy	8f#\Lyy	.	8F#/Lyy	8F#\Lyy	.	8ff#/Lyy	8ff#\Lyy	.	8ff#/Lyy	8ff#\Lyy	.	8fff#\Lyy	.
.	.	.	.	.	.	.	.	.	.	.	.	.	16f#\yy	.	16ff#\yy	.	16ff#\yy	.	.	.	.	.	.	.	.	.	.	.	.	.	.	.	.	.	.	.	.	.
.	8E\	.	8E\J	.	.	.	.	.	.	8eeJ 8e\	.	.	16e\yy	.	16ee\yy	.	16ee\yy	.	.	.	8E\yy	.	.	.	8e/yy	8e\yy	.	8E/yy	8E\yy	.	8ee/yy	8ee\yy	.	8ee/yy	8ee\yy	.	8eee\yy	.
.	.	.	.	.	.	.	.	.	.	.	.	.	16e\yy	.	16ee\yy	.	16ee\yy	.	.	.	.	.	.	.	.	.	.	.	.	.	.	.	.	.	.	.	.	.
.	8D\J	.	8D\	a	.	.	8d\	a	.	8dd 8d\	a	.	16d\yy	.	16dd\yy	.	16dd\yy	.	8ryy	.	8D\Jyy	.	8ryy	.	8d/Jyy	8d\Jyy	.	8D/Jyy	8D\Jyy	.	8dd/Jyy	8dd\Jyy	.	8dd/Jyy	8dd\Jyy	.	8ddd\Jyy	.
.	.	.	.	.	.	.	.	.	.	.	.	.	16d\JJyy	.	16dd\JJyy	.	16dd\JJyy	.	.	.	.	.	.	.	.	.	.	.	.	.	.	.	.	.	.	.	.	.
*	*	*	*	*	*	*	*	*	*	*	*	*	*Xtremolo	*	*Xtremolo	*	*Xtremolo	*	*	*	*	*	*	*	*	*	*	*	*	*	*	*	*	*	*	*	*	*
*	*	*	*	*	*	*	*	*	*	*	*	*	*	*	*	*	*	*	*	*	*	*	*	*	*v	*v	*	*	*	*	*v	*v	*	*	*	*	*	*
*	*	*	*	*	*	*	*	*	*	*	*	*	*	*	*	*	*	*	*	*	*	*	*	*	*	*	*v	*v	*	*	*	*	*	*	*	*
=51	=51	=51	=51	=51	=51	=51	=51	=51	=51	=51	=51	=51	=51	=51	=51	=51	=51	=51	=51	=51	=51	=51	=51	=51	=51	=51	=51	=51	=51	=51	=51	=51	=51	=51	=51
*	*	*	*	*	*	*	*	*	*	*^	*	*	*	*	*	*	*	*	*	*	*	*	*	*	*	*	*	*	*	*	*	*	*	*^	*
*	*	*	*	*ij	*	*	*	*	*	*	*	*	*	*	*	*	*	*	*	*tremolo	*	*	*	*	*	*	*	*	*	*	*	*	*	*	*	*	*
2.ryy	4A\	.	4A\	do-	.	.	4e 4c#\	do-	.	4ee 4a\	4.ryy	do-	.	4c#\yy	.	4eeyy 4a\yy	.	4aayy 4a\yy	.	16AA/LLyy	.	4A\yy	.	4eeyy 4a\yy	.	4eyy 4A\yy	.	4Ayy 4AA\yy	.	4aayy 4a\yy	.	4eeyy 4cc#\yy	4.ryyyy	.	4.eeeyy 4.ccc#\yy	4.ryyyy	.
.	.	.	.	.	.	.	.	.	.	.	.	.	.	.	.	.	.	.	.	16AA/yy	.	.	.	.	.	.	.	.	.	.	.	.	.	.	.	.	.
.	.	.	.	.	.	.	.	.	.	.	.	.	.	.	.	.	.	.	.	16AA/yy	.	.	.	.	.	.	.	.	.	.	.	.	.	.	.	.	.
.	.	.	.	.	.	.	.	.	.	.	.	.	.	.	.	.	.	.	.	16AA/yy	.	.	.	.	.	.	.	.	.	.	.	.	.	.	.	.	.
.	8A\	.	8A\	-bry	.	.	8e 8c#\	-bry	.	8ee 8a\	.	-bry	.	8eyy 8c#\yy	.	8eeyy 8a\yy	.	8aayy 8a\yy	.	16AA/yy	.	8ryy	.	8eeyy 8a\yy	.	8eyy 8A\yy	.	8Ayy 8AA\yy	.	8aayy 8a\yy	.	8eeyy 8cc#\yy	.	.	.	.	.
.	.	.	.	.	.	.	.	.	.	.	.	.	.	.	.	.	.	.	.	16AA/JJyy	.	.	.	.	.	.	.	.	.	.	.	.	.	.	.	.	.
.	8D\L	.	8D\L	tryn-	.	.	4f# 4d\	try-	.	8ff#/L	4a\	tryn-	.	8d\Lyy	.	8ff#Lyy 8a\yy	.	8ff#Lyy 8a\yy	.	16D/LLyy	.	4d\yy	.	4ff#yy 4dd\yy	.	4f#yy 4d\yy	.	4dyy 4D\yy	.	4ff#yy 4a\yy	.	4dd/yy	4dd\yy	.	4ddd/yy	4fff#\yy	.
.	.	.	.	.	.	.	.	.	.	.	.	.	.	.	.	.	.	.	.	16D/yy	.	.	.	.	.	.	.	.	.	.	.	.	.	.	.	.	.
.	8F#\	.	8F#\J	.	.	.	.	.	.	8dd/J	.	.	.	8f#\yy	.	8dd\yy	.	8dd\yy	.	16D/yy	.	.	.	.	.	.	.	.	.	.	.	.	.	.	.	.	.
.	.	.	.	.	.	.	.	.	.	.	.	.	.	.	.	.	.	.	.	16D/yy	.	.	.	.	.	.	.	.	.	.	.	.	.	.	.	.	.
*	*	*	*	*	*	*	*	*ij	*	*	*	*	*	*	*	*	*	*	*	*	*	*	*	*	*	*	*	*	*	*	*	*	*	*	*	*	*
.	8D\J	.	8D\	-gielt	.	.	8f# 8d\	-ngielt	.	8ff#/	8a\	-gielt	.	8d\Jyy	.	8ff#\Jyy	.	8ff#\Jyy	.	16D/yy	.	8ryy	.	8ff#yy 8dd\yy	.	8f#yy 8d\yy	.	8dyy 8D\yy	.	8ff#yy 8a\yy	.	8ddyy 8f#/yy	8ryyyy	.	8ddd/yy	8fff#\yy	.
.	.	.	.	.	.	.	.	.	.	.	.	.	.	.	.	.	.	.	.	16D/JJyy	.	.	.	.	.	.	.	.	.	.	.	.	.	.	.	.	.
*	*	*	*	*	*	*	*	*	*	*	*	*	*	*	*	*	*	*	*	*	*	*	*	*	*	*	*	*	*	*	*	*v	*v	*	*	*	*
*	*	*	*	*	*	*	*	*	*	*	*	*	*	*	*	*	*	*	*	*	*	*	*	*	*	*	*	*	*	*	*	*	*	*v	*v	*
=52	=52	=52	=52	=52	=52	=52	=52	=52	=52	=52	=52	=52	=52	=52	=52	=52	=52	=52	=52	=52	=52	=52	=52	=52	=52	=52	=52	=52	=52	=52	=52	=52	=52	=52	=52
*	*	*	*	*	*	*	*^	*	*	*	*	*	*	*	*	*	*	*	*	*	*	*	*	*	*	*	*	*	*	*	*	*	*	*	*
*	*tremolo	*	*	*	*	*	*	*	*	*	*	*	*	*	*tremolo	*	*tremolo	*	*tremolo	*	*	*	*	*	*	*	*	*	*	*	*	*	*	*	*	*
2.ryy	8A\L	.	4.A\	da-	.	.	4.e 4.c#\	4.ryy	da-	.	4.ee 4.a\	4.ryy	da-	.	8eLyy 8c#\yy	.	16eeLLyy 16cc#\yy	.	16aaLLyy 16a\yy	.	16AA/LLyy	.	(y4.A\yy	.	(y4.eeyy (y4.a/yy	>	(y4.eyy (y4.A/yy	>	(y4.c#yy (y4.A\yy	>	(y4.aayy [y4.a\yy	>	(y4.cc#yy (y4.e/yy	>	(y4.eeeyy (y4.ccc#\yy	>
.	.	.	.	.	.	.	.	.	.	.	.	.	.	.	.	.	16eeyy 16cc#\yy	.	16aayy 16a\yy	.	16AA/yy	.	.	.	.	.	.	.	.	.	.	.	.	.	.	.
.	8A\	.	.	.	.	.	.	.	.	.	.	.	.	.	8eyy 8c#\yy	.	16eeyy 16cc#\yy	.	16aayy 16a\yy	.	16AA/yy	.	.	.	.	.	.	.	.	.	.	.	.	.	.	.
.	.	.	.	.	.	.	.	.	.	.	.	.	.	.	.	.	16eeyy 16cc#\yy	.	16aayy 16a\yy	.	16AA/yy	.	.	.	.	.	.	.	.	.	.	.	.	.	.	.
.	8A\J	.	.	.	.	.	.	.	.	.	.	.	.	.	8eJyy 8c#\yy	.	16eeyy 16cc#\yy	.	16aayy 16a\yy	.	16AA/yy	.	.	.	.	.	.	.	.	.	.	.	.	.	.	.
.	.	.	.	.	.	.	.	.	.	.	.	.	.	.	.	.	16eeJJyy 16cc#\yy	.	16aaJJyy 16a\yy	.	16AA/JJyy	.	.	.	.	.	.	.	.	.	.	.	.	.	.	.
*	*Xtremolo	*	*	*	*	*	*	*	*	*	*	*	*	*	*Xtremolo	*	*Xtremolo	*	*Xtremolo	*	*	*	*	*	*	*	*	*	*	*	*	*	*	*	*	*
.	4D\	.	8d\	-my,	.	.	8f# 8d\	4ryy	-my,	.	8ff# 8a\	8ryy	-my,	.	4d\yy	.	4ff#yy 4dd\yy	.	4ff#yy 4a\yy	.	4D/yy	.	4d\)yy	.	8ff#L)yy 8d/)yy	]	8dL)yy 8F#/)yy	]	8dL)yy 8D\)yy	]	8ff#Lyy 8a\])yy	]	8ddL)yy 8f#/)yy	]	8fff#L)yy 8ddd\)yy	]
.	.	.	8r	.	.	.	8r	.	.	.	8r	8ryy	.	.	.	.	.	.	.	.	.	.	.	.	8ddyy 8f#/yy	.	8A/yy	.	8Ayy 8F#\yy	.	8ddyy 8f#\yy	.	8a/yy	.	8ddd\yy	.
.	8r	.	8D\	a	.	.	8d/	8d\	a	.	8dd/	8dd\	a	.	8ryy	.	8ryy	.	8ryy	.	8ryy	.	8ryy	.	8ff#Jyy 8d/yy	.	8dJyy 8F#/yy	.	8dJyy 8D\yy	.	8ff#Jyy 8a\yy	.	8ddJyy 8f#/yy	.	8fff#Jyy 8ddd\yy	.
*	*	*	*	*	*	*	*v	*v	*	*	*	*	*	*	*	*	*	*	*	*	*	*	*	*	*	*	*	*	*	*	*	*	*	*	*	*
=53	=53	=53	=53	=53	=53	=53	=53	=53	=53	=53	=53	=53	=53	=53	=53	=53	=53	=53	=53	=53	=53	=53	=53	=53	=53	=53	=53	=53	=53	=53	=53	=53	=53	=53	=53
2.ryy	4A\	.	4A\	do-	.	.	4e 4c#\	do-	.	4ee 4a\	4.ryy	do-	.	4eyy 4c#\yy	.	4eeyy 4a\yy	.	4aayy 4a\yy	.	16AA/LLyy	.	4A\yy	.	4eeyy 4a\yy	.	4eyy 4A\yy	.	4Ayy 4AA/yy	.	4eeyy 4cc#\yy	.	4eeyy 4a\yy	.	4eeeyy 4ccc#\yy	.
.	.	.	.	.	.	.	.	.	.	.	.	.	.	.	.	.	.	.	.	16AA/yy	.	.	.	.	.	.	.	.	.	.	.	.	.	.	.
.	.	.	.	.	.	.	.	.	.	.	.	.	.	.	.	.	.	.	.	16AA/yy	.	.	.	.	.	.	.	.	.	.	.	.	.	.	.
.	.	.	.	.	.	.	.	.	.	.	.	.	.	.	.	.	.	.	.	16AA/yy	.	.	.	.	.	.	.	.	.	.	.	.	.	.	.
.	8A\	.	8A\	-bry	.	.	8e 8c#\	-bry	.	8ee 8a\	.	-bry	.	8eyy 8c#\yy	.	8eeyy 8a\yy	.	8aayy 8a\yy	.	16AA/yy	.	8A\yy	.	8eeyy 8a\yy	.	8eyy 8A\yy	.	8Ayy 8AA/yy	.	8eeyy 8cc#\yy	.	8eeyy 8a\yy	.	8eeeyy 8ccc#\yy	.
.	.	.	.	.	.	.	.	.	.	.	.	.	.	.	.	.	.	.	.	16AA/JJyy	.	.	.	.	.	.	.	.	.	.	.	.	.	.	.
.	8D\L	.	8D\L	tryn-	.	.	4f# 4d\	tryn-	.	8ff#/L	4a\	tryn-	.	8d\Lyy	.	8ff#Lyy 8a\yy	.	8ff#Lyy 8a\yy	.	16D\LLyy	.	4d\yy	.	4ff#yy 4dd\yy	.	4f#yy 4d\yy	.	4dyy 4D\yy	.	4ff#yy 4dd\yy	.	4ddyy 4f#/yy	.	8fff#Lyy 8ddd\yy	.
.	.	.	.	.	.	.	.	.	.	.	.	.	.	.	.	.	.	.	.	16D\yy	.	.	.	.	.	.	.	.	.	.	.	.	.	.	.
.	8F#\	.	8F#\J	.	.	.	.	.	.	8dd/J	.	.	.	8f#\yy	.	8dd\yy	.	8dd\yy	.	16D\yy	.	.	.	.	.	.	.	.	.	.	.	.	.	8bb\Jyy	.
.	.	.	.	.	.	.	.	.	.	.	.	.	.	.	.	.	.	.	.	16D\yy	.	.	.	.	.	.	.	.	.	.	.	.	.	.	.
.	8D\J	.	8D\	-gielt	.	.	8f# 8d\	-gielt	.	8ff#/	8a\	-gielt	.	8d\Jyy	.	8ff#\Jyy	.	8ff#\Jyy	.	16D\yy	.	8d\yy	.	8ff#yy 8dd\yy	.	8f#yy 8d\yy	.	8dyy 8D\yy	.	8ff#yy 8dd\yy	.	8ddyy 8f#/yy	.	8fff#yy 8ddd\yy	.
.	.	.	.	.	.	.	.	.	.	.	.	.	.	.	.	.	.	.	.	16D\JJyy	.	.	.	.	.	.	.	.	.	.	.	.	.	.	.
*	*	*	*	*Xij	*	*	*	*Xij	*	*	*	*	*	*	*	*	*	*	*	*Xtremolo	*	*	*	*	*	*	*	*	*	*	*	*	*	*	*
=54	=54	=54	=54	=54	=54	=54	=54	=54	=54	=54	=54	=54	=54	=54	=54	=54	=54	=54	=54	=54	=54	=54	=54	=54	=54	=54	=54	=54	=54	=54	=54	=54	=54	=54	=54
*	*	*	*	*	*	*	*	*	*	*	*	*	*	*tremolo	*	*tremolo	*	*tremolo	*	*	*	*	*	*	*	*	*	*	*	*	*	*	*	*	*
*	*tremolo	*	*2\right	*	*	*	*2\right	*	*	*	*	*	*	*2\right	*	*2\right	*	*	*	*	*	*	*	*2\right	*	*	*	*2\right	*	*2\right	*	*	*	*	*
!	!	!	!	!	!	!	!	!	!	!LO:N:vis=2	!	!	!	!	!	!	!	!	!	!	!	!	!	!	!	!	!	!	!	!	!	!	!	!	!
2.ryy	8AA/L	.	2.A\	da-	.	.	2.e 2.c#\	da-	.	2.ee/	(>4.a\	da-	.	16cc#LL 16e\	.	16ggLL 16a\	.	16aaLL 16a\	.	2.AATT/	.	2.AA/	.	(2.ee (2.a\	.	(2.e (2.A\	.	(2.c# (2.A\	.	(2.aa (2.cc#\	.	(2.ee (2.g/	.	(2.eee (2.ccc#\	.
.	.	.	.	.	.	.	.	.	.	.	.	.	.	16cc# 16e\	.	16gg 16a\	.	16aa 16a\	.	.	.	.	.	.	.	.	.	.	.	.	.	.	.	.	.
.	8AA/	.	.	.	.	.	.	.	.	.	.	.	.	16cc# 16e\	.	16gg 16a\	.	16aa 16a\	.	.	.	.	.	.	.	.	.	.	.	.	.	.	.	.	.
.	.	.	.	.	.	.	.	.	.	.	.	.	.	16cc# 16e\	.	16gg 16a\	.	16aa 16a\	.	.	.	.	.	.	.	.	.	.	.	.	.	.	.	.	.
.	8AA/	.	.	.	.	.	.	.	.	.	.	.	.	16cc# 16e\	.	16gg 16a\	.	16aa 16a\	.	.	.	.	.	.	.	.	.	.	.	.	.	.	.	.	.
.	.	.	.	.	.	.	.	.	.	.	.	.	.	16cc# 16e\	.	16gg 16a\	.	16aa 16a\	.	.	.	.	.	.	.	.	.	.	.	.	.	.	.	.	.
.	8AA/	.	.	.	.	.	.	.	.	.	4.g\	.	.	16cc# 16e\	.	16gg 16a\	.	16aa 16a\	.	.	.	.	.	.	.	.	.	.	.	.	.	.	.	.	.
.	.	.	.	.	.	.	.	.	.	.	.	.	.	16cc# 16e\	.	16gg 16a\	.	16aa 16a\	.	.	.	.	.	.	.	.	.	.	.	.	.	.	.	.	.
.	8AA/	.	.	.	.	.	.	.	.	.	.	.	.	16cc# 16e\	.	16gg 16a\	.	16aa 16a\	.	.	.	.	.	.	.	.	.	.	.	.	.	.	.	.	.
.	.	.	.	.	.	.	.	.	.	.	.	.	.	16cc# 16e\	.	16gg 16a\	.	16aa 16a\	.	.	.	.	.	.	.	.	.	.	.	.	.	.	.	.	.
.	8AA/J	.	.	.	.	.	.	.	.	.	.	.	.	16cc# 16e\	.	16gg 16a\	.	16aa 16a\	.	.	.	.	.	.	.	.	.	.	.	.	.	.	.	.	.
.	.	.	.	.	.	.	.	.	.	.	.	.	.	16cc#JJ 16e\	.	16ggJJ 16a\	.	16aaJJ 16a\	.	.	.	.	.	.	.	.	.	.	.	.	.	.	.	.	.
*	*Xtremolo	*	*	*	*	*	*	*	*	*	*	*	*	*	*	*	*	*	*	*	*	*	*	*	*	*	*	*	*	*	*	*	*	*	*
=55	=55	=55	=55	=55	=55	=55	=55	=55	=55	=55	=55	=55	=55	=55	=55	=55	=55	=55	=55	=55	=55	=55	=55	=55	=55	=55	=55	=55	=55	=55	=55	=55	=55	=55	=55
*	*	*	*	*	*	*	*^	*	*	*	*	*	*	*	*	*	*	*	*	*	*	*	*	*	*	*	*	*	*	*	*	*	*	*	*
2.ryy	4D\	.	4D\	-my.	.	.	4d/	4d\	-my.	.	4dd/	4f#\)	-my.	.	4dd 4d\	.	4ff# 4a\	.	4dd\	.	4D\	.	4D\	.	4dd) 4f#/)	.	4d) 4F#/)	.	4d\))	.	4dd\))	.	4dd) 4f#/)	.	4ddd\))	.
!	!	!	!	!	!	!	!	!	!	!	!	!	!	!	!	!LO:DY:rj	!	!LO:DY:rj	!	!LO:DY:rj	!	!LO:DY:rj	!	!LO:DY:rj	!	!LO:DY:rj	!	!LO:DY:rj	!	!LO:DY:rj	!	!LO:DY:rj	!	!LO:DY:rj	!LO:TX:a:t=a due.	!LO:DY:rj
.	8D\	.	8r	.	.	.	8r	8ryy	.	.	8r	8ryy	.	.	8a 8d\	ff	8ff# 8a\	ff	8ddd 8dd\	ff	8D\	ff	8D\	ff	8dd 8f#/	ff	8d 8F#/	ff	8d 8D\	ff	8dd 8f#/	ff	8dd 8f#/	ff	8ddd\	ff
.	4D\	.	4r	.	.	.	4r	4ryy	.	.	4r	4ryy	.	.	4a 4d\	.	4ff# 4a\	.	4ddd 4dd\	.	4D\	.	4D\	.	4dd 4f#/	.	4d 4F#/	.	4d 4D\	.	4dd 4f#/	.	4dd 4f#/	.	4ddd\	.
.	8D\	.	8r	.	.	.	8r	8ryy	.	.	8r	8ryy	.	.	8a 8d\	.	8ff# 8a\	.	8ddd 8dd\	.	8D\	.	8D\	.	8dd 8f#/	.	8d 8F#/	.	8d 8D\	.	8dd 8f#/	.	8dd 8f#/	.	8ddd\	.
*	*	*	*	*	*	*	*v	*v	*	*	*	*	*	*	*	*	*	*	*	*	*	*	*	*	*	*	*	*	*	*	*	*	*	*	*	*
*	*	*	*	*	*	*	*	*	*	*v	*v	*	*	*	*	*	*	*	*	*	*	*	*	*	*	*	*	*	*	*	*	*	*	*	*
!!LO:PB:g=original
=56	=56	=56	=56	=56	=56	=56	=56	=56	=56	=56	=56	=56	=56	=56	=56	=56	=56	=56	=56	=56	=56	=56	=56	=56	=56	=56	=56	=56	=56	=56	=56	=56	=56	=56
*	*tremolo	*	*	*	*	*	*	*	*	*	*	*	*	*	*	*	*	*	*tremolo	*	*tremolo	*	*	*	*tremolo	*	*	*	*	*	*	*	*	*
2.ryy	8D\L	.	2.r	.	.	.	2.r	.	.	2.r	.	.	8f#\L	.	8dd\L	.	8ddd\L	.	8D\L	.	8D\L	.	8ddL 8f#/	.	8dL 8F#/	.	8dL 8F#\	.	8ddL 8f#/	.	8ddL 8f#/	.	8ddd\L	.
.	8D\	.	.	.	.	.	.	.	.	.	.	.	8f#\	.	8cc#\	.	8ccc#\	.	8D\	.	8D\	.	8f# 8d/	.	8d 8F#/	.	8c# 8F#\	.	8cc# 8f#/	.	8cc# 8f#/	.	8ccc#\	.
.	8D\J	.	.	.	.	.	.	.	.	.	.	.	8f#\J	.	8b\J	.	8bb\J	.	8D\J	.	8D\J	.	8f#J 8d/	.	8dJ 8F#/	.	8BJ 8F#\	.	8bJ 8f#/	.	8bJ 8f#/	.	8bb\J	.
*	*Xtremolo	*	*	*	*	*	*	*	*	*	*	*	*Xtremolo	*	*	*	*	*	*Xtremolo	*	*Xtremolo	*	*	*	*Xtremolo	*	*	*	*	*	*	*	*	*
.	8D\	.	.	.	.	.	.	.	.	.	.	.	8f#\	.	8a/	.	8aa\	.	8D\	.	8D\	.	8f# 8d/	.	8d 8F#/	.	8A 8F#\	.	8a 8f#/	.	8a 8f#/	.	8aa\	.
.	8r	.	.	.	.	.	.	.	.	.	.	.	8r	.	8r	.	8r	.	8r	.	8r	.	8r	.	8r	.	8r	.	8r	.	8r	.	8r	.
.	8D\	.	.	.	.	.	.	.	.	.	.	.	8b 8d\	.	8dd 8f#/	.	8bb 8b\	.	8D\	.	8D\	.	8f# 8d/	.	8d 8F#/	.	8B 8D\	.	8b 8f#/	.	8b 8f#/	.	8bb\	.
=57	=57	=57	=57	=57	=57	=57	=57	=57	=57	=57	=57	=57	=57	=57	=57	=57	=57	=57	=57	=57	=57	=57	=57	=57	=57	=57	=57	=57	=57	=57	=57	=57	=57	=57
*	*	*	*	*	*	*	*	*	*	*	*	*	*	*	*	*	*	*	*	*	*	*	*	*	*	*	*	*	*^	*	*^	*	*	*
2.ryy	4D\	.	2.r	.	.	.	2.r	.	.	2.r	.	.	4b 4d\	.	4dd 4f#/	.	4bb 4b\	.	4D\	.	4D\	.	4f# 4d/	.	4d 4F#/	.	4B 4D\	.	4b 4f#/	4ryy	.	4b 4f#/	4ryy	.	4bb\	.
.	8D\	.	.	.	.	.	.	.	.	.	.	.	8b 8d\	.	8dd 8f#/	.	8bb 8b\	.	8D\	.	8D\	.	8f# 8d/	.	8d 8F#/	.	8B 8D\	.	8b/	8b\	.	8b/	8b\	.	8bb\	.
.	4D\	.	.	.	.	.	.	.	.	.	.	.	4b 4d\	.	4dd 4f#/	.	4bb 4b\	.	4D\	.	4D\	.	4f# 4d/	.	4d 4F#/	.	4B 4D\	.	4b/	4b\	.	4b/	4b\	.	4bb\	.
.	8D\	.	.	.	.	.	.	.	.	.	.	.	8b 8d\	.	8dd 8f#/	.	8bb 8b\	.	8D\	.	8D\	.	8f# 8d/	.	8d 8F#/	.	8B 8D\	.	8b/	8b\	.	8b/	8b\	.	8bb\	.
=58	=58	=58	=58	=58	=58	=58	=58	=58	=58	=58	=58	=58	=58	=58	=58	=58	=58	=58	=58	=58	=58	=58	=58	=58	=58	=58	=58	=58	=58	=58	=58	=58	=58	=58	=58	=58
*	*	*	*	*	*	*	*	*	*	*	*	*	*	*	*	*	*	*	*	*	*	*	*	*	*	*	*^	*	*	*	*	*	*	*	*	*
*	*tremolo	*	*	*	*	*	*	*	*	*	*	*	*tremolo	*	*	*	*	*	*tremolo	*	*tremolo	*	*tremolo	*	*tremolo	*	*	*	*	*	*	*	*	*	*	*	*
2.ryy	8D\L	.	2.r	.	.	.	2.r	.	.	2.r	.	.	8f#\L	.	8b/L	.	8bb\L	.	8D\L	.	8D\L	.	8f#L 8d/	.	8dL 8F#/	.	8BL 8D\	4.ryy	.	8b/L	8b\L	.	8b/L	8b\L	.	8bb\L	.
.	8D\	.	.	.	.	.	.	.	.	.	.	.	8f#\	.	8a/	.	8aa\	.	8D\	.	8D\	.	8f# 8d/	.	8d 8F#/	.	8A 8D\	.	.	8a/	8a\	.	8a/	8a\	.	8aa\	.
.	8D\J	.	.	.	.	.	.	.	.	.	.	.	8f#\J	.	8g/J	.	8gg\J	.	8D\J	.	8D\J	.	8f#J 8d/	.	8dJ 8F#/	.	8GJ 8D\	.	.	8g/J	8g\J	.	8g/J	8g\J	.	8gg\J	.
*	*Xtremolo	*	*	*	*	*	*	*	*	*	*	*	*Xtremolo	*	*	*	*	*	*Xtremolo	*	*Xtremolo	*	*Xtremolo	*	*Xtremolo	*	*	*	*	*	*	*	*	*	*	*	*
.	8D\	.	.	.	.	.	.	.	.	.	.	.	8f#\	.	8f#/	.	8ff#\	.	8D\	.	8D\	.	8f# 8d/	.	8d 8F#/	.	8F# 8D\	4ryy	.	8f#/	8f#\	.	8f#/	8f#\	.	8ff#\	.
.	8r	.	.	.	.	.	.	.	.	.	.	.	8r	.	8r	.	8r	.	8r	.	8r	.	8r	.	8r	.	8r	.	.	8r	8ryy	.	8r	8ryy	.	8r	.
.	8G\	.	.	.	.	.	.	.	.	.	.	.	8g\	.	8gg\	.	8gg\	.	8r	.	8r	.	8r	.	8r	.	8G/	8G\	.	8g/	8g\	.	8g/	8g\	.	8gg\	.
=59	=59	=59	=59	=59	=59	=59	=59	=59	=59	=59	=59	=59	=59	=59	=59	=59	=59	=59	=59	=59	=59	=59	=59	=59	=59	=59	=59	=59	=59	=59	=59	=59	=59	=59	=59	=59	=59
2.ryy	8G\L	.	2.r	.	.	.	2.r	.	.	2.r	.	.	8g\L	.	8gg\L	.	8gg\L	.	2.r	.	2.r	.	2.r	.	2.r	.	8G/L	8G\L	.	8g/L	8g\L	.	8g/L	8g\L	.	8gg\L	.
.	8F#\	.	.	.	.	.	.	.	.	.	.	.	8f#\	.	8ff#\	.	8ff#\	.	.	.	.	.	.	.	.	.	8F#/	8F#\	.	8f#/	8f#\	.	8f#/	8f#\	.	8ff#\	.
.	8E\J	.	.	.	.	.	.	.	.	.	.	.	8e\J	.	8ee\J	.	8ee\J	.	.	.	.	.	.	.	.	.	8E/J	8E\J	.	8e/J	8e\J	.	8e/J	8e\J	.	8ee\J	.
.	4D\	.	.	.	.	.	.	.	.	.	.	.	4d\	.	4dd\	.	4dd\	.	.	.	.	.	.	.	.	.	4D/	4D\	.	4d/	4d\	.	4d/	4d\	.	4dd\	.
.	8E\	.	.	.	.	.	.	.	.	.	.	.	8e\	.	8ee\	.	8ee\	.	.	.	.	.	.	.	.	.	8E/	8E\	.	8e/	8e\	.	8r	8ryy	.	8ee\	.
=60	=60	=60	=60	=60	=60	=60	=60	=60	=60	=60	=60	=60	=60	=60	=60	=60	=60	=60	=60	=60	=60	=60	=60	=60	=60	=60	=60	=60	=60	=60	=60	=60	=60	=60	=60	=60	=60
2.ryy	8D/L	.	2.r	.	.	.	2.r	.	.	2.r	.	.	8d\L	.	8dd\L	.	8dd\L	.	2.r	.	2.r	.	2.r	.	2.r	.	8D/L	8D\L	.	8d/L	8d\L	.	8dd/L	8dd\L	.	8dd\L	.
.	8C#/	.	.	.	.	.	.	.	.	.	.	.	8c#\	.	8cc#\	.	8cc#\	.	.	.	.	.	.	.	.	.	8C#/	8C#\	.	8c#/	8c#\	.	8cc#/	8cc#\	.	8cc#\	.
.	8BB/J	.	.	.	.	.	.	.	.	.	.	.	8B\J	.	8b\J	.	8b\J	.	.	.	.	.	.	.	.	.	8BB/J	8BB\J	.	8B/J	8B\J	.	8b/J	8b\J	.	8b\J	.
.	8AA/L	.	.	.	.	.	.	.	.	.	.	.	8A/L	.	8a\L	.	8a\L	.	.	.	.	.	.	.	.	.	8AA/L	8AA\L	<	8A/L	8A\L	.	8a/L	8a\L	.	8a\L	<
.	8BB/	.	.	.	.	.	.	.	.	.	.	.	8B/	<	8b\	<	8b\	<	.	.	.	.	.	.	.	.	8BB/	8BB\	.	8B/	8B\	<	8b/	8b\	<	8b\	.
.	8C#/J	.	.	.	.	.	.	.	.	.	.	.	8c#/J	.	8cc#\J	.	8cc#\J	.	.	.	.	.	.	.	.	.	8C#/J	8C#\J	.	8c#/J	8c#\J	.	8cc#/J	8cc#\J	.	8cc#\J	.
=61	=61	=61	=61	=61	=61	=61	=61	=61	=61	=61	=61	=61	=61	=61	=61	=61	=61	=61	=61	=61	=61	=61	=61	=61	=61	=61	=61	=61	=61	=61	=61	=61	=61	=61	=61	=61	=61
2.ryy	8D\L	.	2.r	.	.	.	2.r	.	.	2.r	.	.	8d\L	.	8dd\L	.	8dd\L	.	2.r	.	2.r	.	2.r	.	2.r	.	8D/L	8D\L	.	8d/L	8d\L	.	8dd/L	8dd\L	.	8dd\L	.
.	8E\	.	.	.	.	.	.	.	.	.	.	.	8e\	.	8ee\	.	8ee\	.	.	.	.	.	.	.	.	.	8E/	8E\	.	8e/	8e\	.	8ee/	8ee\	.	8ee\	.
.	8F#\J	.	.	.	.	.	.	.	.	.	.	.	8f#\J	.	8ff#\J	.	8ff#\J	.	.	.	.	.	.	.	.	.	8F#/J	8F#\J	.	8f#/J	8f#\J	.	8ff#/J	8ff#\J	.	8ff#\J	.
.	8G\L	.	.	.	.	.	.	.	.	.	.	.	8g\L	.	8gg\L	.	8gg\L	.	.	.	.	.	.	.	.	.	8G/L	8G\L	.	8g/L	8g\L	.	8gg/L	8gg\L	.	8gg\L	.
.	8G#X\	.	.	.	.	.	.	.	.	.	.	.	8g#X\	[	8gg#X\	[	8gg#X\	[	.	.	.	.	.	.	.	.	8G#X/	8G#\	.	8g#/	8g#\	.	8gg#X/	8gg#\	.	8gg#X\	.
.	8B\J	.	.	.	.	.	.	.	.	.	.	.	8b\J	.	8bb\J	.	8bb\J	.	.	.	.	.	.	.	.	.	8B/J	8B\J	[	8b/J	8b\J	[	8bb/J	8bb\J	[	8bb\J	[
*	*	*	*	*	*	*	*	*	*	*	*	*	*	*	*	*	*	*	*	*	*	*	*	*	*	*	*	*	*	*v	*v	*	*	*	*	*	*
=62	=62	=62	=62	=62	=62	=62	=62	=62	=62	=62	=62	=62	=62	=62	=62	=62	=62	=62	=62	=62	=62	=62	=62	=62	=62	=62	=62	=62	=62	=62	=62	=62	=62	=62	=62	=62
2.ryy	4A\	.	2.r	.	.	.	2.r	.	.	2.r	.	.	4a\	.	4aa\	.	4aa\	.	4r	.	4r	.	4r	.	4r	.	4A/	4A\	.	4a\	.	4aa/	4aa\	.	4aa\	.
.	8r	.	.	.	.	.	.	.	.	.	.	.	8r	.	8r	.	8r	.	8r	.	8r	.	8r	.	8r	.	8r	8ryy	.	8r	.	8r	8ryy	.	8r	.
.	4A\	.	.	.	.	.	.	.	.	.	.	.	4a 4e 4A\	.	4ee 4cc# 4a/	.	4ccc# 4a\	.	4AA/	.	4A\	.	4ee 4a\	.	4e 4A\	.	4c# 4E\	4ryy	.	4gg 4cc#\	.	4ee 4g\	4ryy	.	4eee 4ccc#\	.
.	8r	.	.	.	.	.	.	.	.	.	.	.	8r	.	8r	.	8r	.	8r	.	8r	.	8r	.	8r	.	8r	8ryy	.	8r	.	8r	8ryy	.	8r	.
*	*	*	*	*	*	*	*	*	*	*	*	*	*	*	*	*	*	*	*	*	*	*	*	*	*	*	*v	*v	*	*	*	*v	*v	*	*	*
=63	=63	=63	=63	=63	=63	=63	=63	=63	=63	=63	=63	=63	=63	=63	=63	=63	=63	=63	=63	=63	=63	=63	=63	=63	=63	=63	=63	=63	=63	=63	=63	=63	=63	=63
*	*	*	*	*	*	*	*	*	*	*	*	*	*	*	*	*	*	*	*	*	*	*	*	*	*	*	*	*	*	*	*	*	*^	*
2.ryy	4D\	.	2.r	.	.	.	2.r	.	.	2.r	.	.	4a 4d 4A 4F#\	.	4ff# 4dd 4d/	.	4ddd 4a 4d\	.	4D\	.	4D\	.	4dd 4f#/	.	4f# 4D/	.	4d 4F#\	.	4ff# 4dd\	.	4dd 4f#\	.	4ddd/	4ddd\	.
.	8r	.	.	.	.	.	.	.	.	.	.	.	8r	.	8r	.	8r	.	8r	.	8r	.	8r	.	8r	.	8r	.	8r	.	8r	.	8r	8ryy	.
.	4r	.	.	.	.	.	.	.	.	.	.	.	4r	.	4r	.	4r	.	4r	.	4r	.	4r	.	4r	.	4r	.	4r	.	4r	.	4r	4ryy	.
.	8r	.	.	.	.	.	.	.	.	.	.	.	8r	.	8r	.	8r	.	8r	.	8r	.	8r	.	8r	.	8r	.	8r	.	8r	.	8r	8ryy	.
*	*	*	*	*	*	*	*	*	*	*	*	*	*	*	*	*	*	*	*	*	*	*	*	*	*	*	*	*	*	*	*	*	*v	*v	*
==	==	==	==	==	==	==	==	==	==	==	==	==	==	==	==	==	==	==	==	==	==	==	==	==	==	==	==	==	==	==	==	==	==	==
*-	*-	*-	*-	*-	*-	*-	*-	*-	*-	*-	*-	*-	*-	*-	*-	*-	*-	*-	*-	*-	*-	*-	*-	*-	*-	*-	*-	*-	*-	*-	*-	*-	*-	*-
!!!system-decoration: [(<s1,s2,s3,s4,s5,s6,s7,s8>{s9,s10,s11}{g1}s15,s16)]
!!!RDF**kern: > = above
!!!RDF**kern: < = below
!!!RDF**kern: | = vertical stroke
!!!AIN: 7 empty 1 fagot 1 flt 1 oboe 2 tromp 1 tromt 1 viola 2 violn
!!!ENC: Andrzej Kubiczek
!!!END: 2021-09-10
!!!ENC: Marta Lawrence
!!!END: 2021-10-22
